; generated by Slic3r 1.3.0 on 2023-03-12 at 17:15:37

; external perimeters extrusion width = 0.55mm (4.37mm^3/s)
; perimeters extrusion width = 0.70mm (11.44mm^3/s)
; infill extrusion width = 0.62mm (13.45mm^3/s)
; solid infill extrusion width = 0.70mm (3.81mm^3/s)
; top infill extrusion width = 0.70mm (2.86mm^3/s)
; support material extrusion width = 0.55mm (8.74mm^3/s)

M107
M190 S70 ; set bed temperature and wait for it to be reached
M104 S230 ; set temperature
G28 ; home all axes
G1 Z5 F5000 ; lift nozzle

; Filament gcode

M109 S230 ; set temperature and wait for it to be reached
G21 ; set units to millimeters
G90 ; use absolute coordinates
M82 ; use absolute distances for extrusion
G92 E0
G1 Z0.400 F7800.000
G1 E-2.00000 F2400.00000
G92 E0
G1 X11.327 Y159.226 F7800.000
G1 E2.00000 F2400.00000
G1 F1800
G1 X159.523 Y11.030 E26.89081
G1 X161.412 Y9.703 E27.16503
G1 X163.639 Y9.094 E27.43926
G1 X165.941 Y9.275 E27.71348
G1 X168.045 Y10.225 E27.98771
G1 X169.018 Y11.030 E28.13767
G1 X208.970 Y50.982 E34.84790
G1 X210.297 Y52.871 E35.12213
G1 X210.906 Y55.098 E35.39635
G1 X210.725 Y57.400 E35.67058
G1 X209.775 Y59.504 E35.94480
G1 X208.970 Y60.477 E36.09477
G1 X60.477 Y208.970 E61.03546
G1 X58.588 Y210.297 E61.30968
G1 X56.361 Y210.906 E61.58391
G1 X54.059 Y210.725 E61.85813
G1 X51.955 Y209.775 E62.13236
G1 X50.982 Y208.970 E62.28231
G1 X11.030 Y169.018 E68.99255
G1 X9.703 Y167.129 E69.26678
G1 X9.094 Y164.902 E69.54100
G1 X9.275 Y162.600 E69.81523
G1 X10.225 Y160.496 E70.08945
G1 X11.030 Y159.523 E70.23941
G1 X11.274 Y159.279 E70.28039
G1 E68.28039 F2400.00000
G92 E0
G1 X95.843 Y85.782 F7800.000
G1 E2.00000 F2400.00000
G1 F1800
G1 X97.095 Y84.529 E2.21041
G1 X135.471 Y122.905 E8.65600
G1 X134.218 Y124.157 E8.86641
G1 X95.896 Y85.835 E15.30309
G1 X94.833 Y85.782 F7800.000
G1 F1800
G1 X97.095 Y83.519 E15.68314
G1 X136.481 Y122.905 E22.29836
G1 X134.218 Y125.167 E22.67841
G1 X94.886 Y85.835 E29.28472
G1 X95.313 Y85.643 F7800.000
G1 E27.28472 F2400.00000
G92 E0
G1 X136.870 Y122.728 F7800.000
G1 E2.00000 F2400.00000
G1 F1800
G1 X201.217 Y58.381 E8.26745
G1 E6.26745 F2400.00000
G92 E0
G1 X163.018 Y18.606 F7800.000
G1 E2.00000 F2400.00000
G1 F1800
G1 X164.270 Y17.354 E2.21041
G1 X202.646 Y55.730 E8.65600
G1 X201.394 Y56.982 E8.86641
G1 X163.071 Y18.659 E15.30309
G1 X162.008 Y18.606 F7800.000
G1 F1800
G1 X164.270 Y16.344 E15.68314
G1 X203.656 Y55.730 E22.29836
G1 X201.394 Y57.992 E22.67841
G1 X162.061 Y18.659 E29.28472
G1 X162.488 Y18.468 F7800.000
G1 X161.796 Y18.960 F7800.000
G1 F1800
G1 X161.560 Y18.960 E29.29740
G1 F1800
G1 X161.442 Y18.960 E29.30551
G1 X97.272 Y83.130 E35.55590
G1 E33.55590 F2400.00000
G92 E0
G1 X94.444 Y85.958 F7800.000
G1 E2.00000 F2400.00000
G1 F1800
G1 X15.955 Y164.447 E9.64510
G1 E7.64510 F2400.00000
G92 E0
G1 X55.553 Y204.045 F7800.000
G1 E2.00000 F2400.00000
G1 F1800
G1 X134.042 Y125.556 E9.64492
G1 E7.64492 F2400.00000
G92 E0
G1 X134.592 Y123.279 F7800.000
G1 E2.00000 F2400.00000
G1 F1800
G1 X96.721 Y85.408 E10.65443
G1 E8.65443 F2400.00000
G92 E0
G1 X163.897 Y18.233 F7800.000
G1 E2.00000 F2400.00000
G1 F1800
G1 X201.767 Y56.103 E10.65446
G1 Z0.400 F7800.000
G1 Z0.700 F7800.000
G1 E8.65446 F2400.00000
G92 E0
G1 X97.095 Y85.034 F7800.000
G1 E2.00000 F2400.00000
G1 F3600
G1 X134.966 Y122.905 E6.24593
G1 X134.218 Y123.652 E6.32977
G1 X96.348 Y85.782 E10.57570
G1 X97.042 Y85.087 E10.65359
G1 X97.095 Y84.135 F7800.000
G1 F3600
G1 X135.865 Y122.905 E15.00030
G1 X134.218 Y124.551 E15.18492
G1 X95.449 Y85.782 E19.53163
G1 X97.042 Y84.188 E19.71031
G1 X97.095 Y83.342 F7800.000
G1 F1800
G1 X136.658 Y122.905 E23.09915
G1 X134.218 Y125.344 E23.30811
G1 X94.656 Y85.782 E26.69696
G1 X97.042 Y83.395 E26.90138
G1 X97.249 Y83.818 F7800.000
G1 X136.870 Y122.728 F7800.000
G1 F1800
G1 X201.217 Y58.381 E31.84554
G1 X163.523 Y18.606 F7800.000
G1 F3600
G1 X164.270 Y17.859 E31.92938
G1 X202.141 Y55.730 E36.17531
G1 X201.394 Y56.477 E36.25915
G1 X163.576 Y18.659 E40.49913
G1 X162.624 Y18.606 F7800.000
G1 F3600
G1 X164.270 Y16.960 E40.68375
G1 X203.040 Y55.730 E45.03047
G1 X201.394 Y57.376 E45.21509
G1 X162.677 Y18.659 E49.55585
G1 X161.831 Y18.606 F7800.000
G1 F1800
G1 X164.270 Y16.167 E49.76482
G1 X203.833 Y55.730 E53.15366
G1 X201.394 Y58.169 E53.36262
G1 X161.884 Y18.659 E56.74692
G1 X162.311 Y18.467 F7800.000
G1 X161.619 Y18.783 F7800.000
G1 F1800
G1 X97.272 Y83.130 E61.69120
G1 X94.444 Y85.958 F7800.000
G1 F1800
G1 X15.955 Y164.447 E67.72212
G1 E65.72212 F2400.00000
G92 E0
G1 X55.553 Y204.045 F7800.000
G1 E2.00000 F2400.00000
G1 F1800
G1 X134.042 Y125.556 E8.03080
G1 X134.368 Y123.054 F7800.000
G1 F1200
G1 X96.946 Y85.632 E10.39071
G1 E8.39071 F2400.00000
G92 E0
G1 X164.121 Y18.457 F7800.000
G1 E2.00000 F2400.00000
G1 F1200
G1 X201.543 Y55.879 E4.35995
G1 Z1.000 F7800.000
G1 E2.35995 F2400.00000
G92 E0
G1 X97.095 Y85.034 F7800.000
G1 E2.00000 F2400.00000
G1 F3600
G1 X134.966 Y122.905 E6.24593
G1 X134.218 Y123.652 E6.32977
G1 X96.348 Y85.782 E10.57570
G1 X97.042 Y85.087 E10.65359
G1 X97.095 Y84.135 F7800.000
G1 F3600
G1 X135.865 Y122.905 E15.00030
G1 X134.218 Y124.551 E15.18492
G1 X95.449 Y85.782 E19.53163
G1 X97.042 Y84.188 E19.71031
G1 X97.095 Y83.342 F7800.000
G1 F1800
G1 X136.658 Y122.905 E23.09915
G1 X134.218 Y125.344 E23.30811
G1 X94.656 Y85.782 E26.69696
G1 X97.042 Y83.395 E26.90138
G1 X97.256 Y83.815 F7800.000
G1 X136.870 Y122.728 F7800.000
G1 F1800
G1 X201.217 Y58.381 E31.84554
G1 X163.523 Y18.606 F7800.000
G1 F3600
G1 X164.270 Y17.859 E31.92938
G1 X202.141 Y55.730 E36.17531
G1 X201.394 Y56.477 E36.25915
G1 X163.576 Y18.659 E40.49913
G1 X162.624 Y18.606 F7800.000
G1 F3600
G1 X164.270 Y16.960 E40.68375
G1 X203.040 Y55.730 E45.03047
G1 X201.394 Y57.376 E45.21508
G1 X162.677 Y18.659 E49.55585
G1 X161.831 Y18.606 F7800.000
G1 F1800
G1 X164.270 Y16.167 E49.76481
G1 X203.833 Y55.730 E53.15366
G1 X201.394 Y58.169 E53.36262
G1 X161.884 Y18.659 E56.74692
G1 X162.311 Y18.467 F7800.000
G1 X161.619 Y18.783 F7800.000
G1 F1800
G1 X97.272 Y83.130 E61.69121
G1 X94.444 Y85.958 F7800.000
G1 F1800
G1 X15.955 Y164.447 E67.72216
G1 E65.72216 F2400.00000
G92 E0
G1 X55.553 Y204.045 F7800.000
G1 E2.00000 F2400.00000
G1 F1800
G1 X134.042 Y125.556 E8.03080
G1 X134.368 Y123.054 F7800.000
G1 F1200
G1 X96.946 Y85.632 E10.39071
G1 E8.39071 F2400.00000
G92 E0
G1 X164.121 Y18.457 F7800.000
G1 E2.00000 F2400.00000
G1 F1200
G1 X201.543 Y55.879 E4.35993
M106 S165.75
G1 Z1.300 F7800.000
G1 E2.35993 F2400.00000
G92 E0
G1 X97.095 Y85.034 F7800.000
G1 E2.00000 F2400.00000
G1 F3600
G1 X134.966 Y122.905 E6.24593
G1 X134.218 Y123.652 E6.32977
G1 X96.348 Y85.782 E10.57570
G1 X97.042 Y85.087 E10.65359
G1 X97.095 Y84.135 F7800.000
G1 F3600
G1 X135.865 Y122.905 E15.00030
G1 X134.218 Y124.551 E15.18492
G1 X95.449 Y85.782 E19.53163
G1 X97.042 Y84.188 E19.71031
G1 X97.095 Y83.342 F7800.000
G1 F1800
G1 X136.658 Y122.905 E23.09915
G1 X134.218 Y125.344 E23.30811
G1 X94.656 Y85.782 E26.69696
G1 X97.042 Y83.395 E26.90138
G1 X97.257 Y83.815 F7800.000
G1 X136.870 Y122.728 F7800.000
G1 F1800
G1 X201.217 Y58.381 E31.84554
G1 X163.523 Y18.606 F7800.000
G1 F3600
G1 X164.270 Y17.859 E31.92938
G1 X202.141 Y55.730 E36.17531
G1 X201.394 Y56.477 E36.25915
G1 X163.576 Y18.659 E40.49913
G1 X162.624 Y18.606 F7800.000
G1 F3600
G1 X164.270 Y16.960 E40.68375
G1 X203.040 Y55.730 E45.03047
G1 X201.394 Y57.376 E45.21509
G1 X162.677 Y18.659 E49.55585
G1 X161.831 Y18.606 F7800.000
G1 F1800
G1 X164.270 Y16.167 E49.76482
G1 X203.833 Y55.730 E53.15366
G1 X201.394 Y58.169 E53.36262
G1 X161.884 Y18.659 E56.74692
G1 X162.311 Y18.467 F7800.000
G1 X161.619 Y18.783 F7800.000
G1 F1800
G1 X97.272 Y83.130 E61.69120
G1 X94.444 Y85.958 F7800.000
G1 F1800
G1 X15.955 Y164.447 E67.72213
G1 E65.72213 F2400.00000
G92 E0
G1 X55.553 Y204.045 F7800.000
G1 E2.00000 F2400.00000
G1 F1800
G1 X134.042 Y125.556 E8.03080
G1 X134.368 Y123.054 F7800.000
G1 F1200
G1 X96.946 Y85.632 E10.39071
G1 E8.39071 F2400.00000
G92 E0
G1 X164.121 Y18.457 F7800.000
G1 E2.00000 F2400.00000
G1 F1200
G1 X201.543 Y55.879 E4.35995
G1 Z1.600 F7800.000
G1 E2.35995 F2400.00000
G92 E0
G1 X97.095 Y85.034 F7800.000
G1 E2.00000 F2400.00000
G1 F3600
G1 X134.966 Y122.905 E6.24593
G1 X134.218 Y123.652 E6.32977
G1 X96.348 Y85.782 E10.57570
G1 X97.042 Y85.087 E10.65359
G1 X97.095 Y84.135 F7800.000
G1 F3600
G1 X135.865 Y122.905 E15.00030
G1 X134.218 Y124.551 E15.18492
G1 X95.449 Y85.782 E19.53163
G1 X97.042 Y84.188 E19.71031
G1 X97.095 Y83.342 F7800.000
G1 F1800
G1 X136.658 Y122.905 E23.09915
G1 X134.218 Y125.344 E23.30811
G1 X94.656 Y85.782 E26.69696
G1 X97.042 Y83.395 E26.90138
G1 X97.265 Y83.813 F7800.000
G1 X136.870 Y122.728 F7800.000
G1 F1800
G1 X201.217 Y58.381 E31.84553
G1 X163.523 Y18.606 F7800.000
G1 F3600
G1 X164.270 Y17.859 E31.92937
G1 X202.141 Y55.730 E36.17530
G1 X201.394 Y56.477 E36.25914
G1 X163.576 Y18.659 E40.49912
G1 X162.624 Y18.606 F7800.000
G1 F3600
G1 X164.270 Y16.960 E40.68374
G1 X203.040 Y55.730 E45.03045
G1 X201.394 Y57.376 E45.21507
G1 X162.677 Y18.659 E49.55584
G1 X161.831 Y18.606 F7800.000
G1 F1800
G1 X164.270 Y16.167 E49.76480
G1 X203.833 Y55.730 E53.15364
G1 X201.394 Y58.169 E53.36261
G1 X161.884 Y18.659 E56.74691
G1 X162.311 Y18.467 F7800.000
G1 X161.619 Y18.783 F7800.000
G1 F1800
G1 X97.272 Y83.130 E61.69119
G1 X94.444 Y85.958 F7800.000
G1 F1800
G1 X15.955 Y164.447 E67.72212
G1 E65.72212 F2400.00000
G92 E0
G1 X55.553 Y204.045 F7800.000
G1 E2.00000 F2400.00000
G1 F1800
G1 X134.042 Y125.556 E8.03080
G1 X134.368 Y123.054 F7800.000
G1 F1200
G1 X96.946 Y85.632 E10.39071
G1 E8.39071 F2400.00000
G92 E0
G1 X164.121 Y18.457 F7800.000
G1 E2.00000 F2400.00000
G1 F1200
G1 X201.543 Y55.879 E4.35995
G1 Z1.900 F7800.000
G1 E2.35995 F2400.00000
G92 E0
G1 X97.095 Y85.034 F7800.000
G1 E2.00000 F2400.00000
G1 F3600
G1 X134.966 Y122.905 E6.24593
G1 X134.218 Y123.652 E6.32977
G1 X96.348 Y85.782 E10.57570
G1 X97.042 Y85.087 E10.65359
G1 X97.095 Y84.135 F7800.000
G1 F3600
G1 X135.865 Y122.905 E15.00030
G1 X134.218 Y124.551 E15.18492
G1 X95.449 Y85.782 E19.53163
G1 X97.042 Y84.188 E19.71031
G1 X97.095 Y83.342 F7800.000
G1 F1800
G1 X136.658 Y122.905 E23.09915
G1 X134.218 Y125.344 E23.30811
G1 X94.656 Y85.782 E26.69696
G1 X97.042 Y83.395 E26.90138
G1 X97.278 Y83.808 F7800.000
G1 X136.870 Y122.728 F7800.000
G1 F1800
G1 X201.217 Y58.381 E31.84554
G1 X163.523 Y18.606 F7800.000
G1 F3600
G1 X164.270 Y17.859 E31.92938
G1 X202.141 Y55.730 E36.17531
G1 X201.394 Y56.477 E36.25915
G1 X163.576 Y18.659 E40.49913
G1 X162.624 Y18.606 F7800.000
G1 F3600
G1 X164.270 Y16.960 E40.68375
G1 X203.040 Y55.730 E45.03047
G1 X201.394 Y57.376 E45.21508
G1 X162.677 Y18.659 E49.55585
G1 X161.831 Y18.606 F7800.000
G1 F1800
G1 X164.270 Y16.167 E49.76481
G1 X203.833 Y55.730 E53.15366
G1 X201.394 Y58.169 E53.36262
G1 X161.884 Y18.659 E56.74692
G1 X162.311 Y18.467 F7800.000
G1 X161.619 Y18.783 F7800.000
G1 F1800
G1 X97.272 Y83.130 E61.69120
G1 X94.444 Y85.958 F7800.000
G1 F1800
G1 X15.955 Y164.447 E67.72213
G1 E65.72213 F2400.00000
G92 E0
G1 X55.553 Y204.045 F7800.000
G1 E2.00000 F2400.00000
G1 F1800
G1 X134.042 Y125.556 E8.03080
G1 X134.368 Y123.054 F7800.000
G1 F1200
G1 X96.946 Y85.632 E10.39071
G1 E8.39071 F2400.00000
G92 E0
G1 X164.121 Y18.457 F7800.000
G1 E2.00000 F2400.00000
G1 F1200
G1 X201.543 Y55.879 E4.35995
G1 Z2.200 F7800.000
G1 E2.35995 F2400.00000
G92 E0
G1 X97.095 Y85.034 F7800.000
G1 E2.00000 F2400.00000
G1 F3600
G1 X134.966 Y122.905 E6.24593
G1 X134.218 Y123.652 E6.32977
G1 X96.348 Y85.782 E10.57570
G1 X97.042 Y85.087 E10.65359
G1 X97.095 Y84.135 F7800.000
G1 F3600
G1 X135.865 Y122.905 E15.00030
G1 X134.218 Y124.551 E15.18492
G1 X95.449 Y85.782 E19.53163
G1 X97.042 Y84.188 E19.71031
G1 X97.095 Y83.342 F7800.000
G1 F1800
G1 X136.658 Y122.905 E23.09915
G1 X134.218 Y125.344 E23.30811
G1 X94.656 Y85.782 E26.69696
G1 X97.042 Y83.395 E26.90138
G1 X97.282 Y83.806 F7800.000
G1 X136.870 Y122.728 F7800.000
G1 F1800
G1 X201.217 Y58.381 E31.84554
G1 X163.523 Y18.606 F7800.000
G1 F3600
G1 X164.270 Y17.859 E31.92938
G1 X202.141 Y55.730 E36.17531
G1 X201.394 Y56.477 E36.25915
G1 X163.576 Y18.659 E40.49913
G1 X162.624 Y18.606 F7800.000
G1 F3600
G1 X164.270 Y16.960 E40.68375
G1 X203.040 Y55.730 E45.03047
G1 X201.394 Y57.376 E45.21509
G1 X162.677 Y18.659 E49.55585
G1 X161.831 Y18.606 F7800.000
G1 F1800
G1 X164.270 Y16.167 E49.76481
G1 X203.833 Y55.730 E53.15366
G1 X201.394 Y58.169 E53.36262
G1 X161.884 Y18.659 E56.74692
G1 X162.311 Y18.467 F7800.000
G1 X161.619 Y18.783 F7800.000
G1 F1800
G1 X97.272 Y83.130 E61.69120
G1 X94.444 Y85.958 F7800.000
G1 F1800
G1 X15.955 Y164.447 E67.72213
G1 E65.72213 F2400.00000
G92 E0
G1 X55.553 Y204.045 F7800.000
G1 E2.00000 F2400.00000
G1 F1800
G1 X134.042 Y125.556 E8.03080
G1 X134.368 Y123.054 F7800.000
G1 F1200
G1 X96.946 Y85.632 E10.39071
G1 E8.39071 F2400.00000
G92 E0
G1 X164.121 Y18.457 F7800.000
G1 E2.00000 F2400.00000
G1 F1200
G1 X201.543 Y55.879 E4.35995
G1 Z2.500 F7800.000
G1 E2.35995 F2400.00000
G92 E0
G1 X97.095 Y85.034 F7800.000
G1 E2.00000 F2400.00000
G1 F3600
G1 X134.966 Y122.905 E6.24593
G1 X134.218 Y123.652 E6.32977
G1 X96.348 Y85.782 E10.57570
G1 X97.042 Y85.087 E10.65359
G1 X97.095 Y84.135 F7800.000
G1 F3600
G1 X135.865 Y122.905 E15.00030
G1 X134.218 Y124.551 E15.18492
G1 X95.449 Y85.782 E19.53163
G1 X97.042 Y84.188 E19.71031
G1 X97.095 Y83.342 F7800.000
G1 F1800
G1 X136.658 Y122.905 E23.09915
G1 X134.218 Y125.344 E23.30811
G1 X94.656 Y85.782 E26.69696
G1 X97.042 Y83.395 E26.90138
G1 X97.290 Y83.802 F7800.000
G1 X136.870 Y122.728 F7800.000
G1 F1800
G1 X201.217 Y58.381 E31.84553
G1 X163.523 Y18.606 F7800.000
G1 F3600
G1 X164.270 Y17.859 E31.92937
G1 X202.141 Y55.730 E36.17530
G1 X201.394 Y56.477 E36.25914
G1 X163.576 Y18.659 E40.49912
G1 X162.624 Y18.606 F7800.000
G1 F3600
G1 X164.270 Y16.960 E40.68374
G1 X203.040 Y55.730 E45.03045
G1 X201.394 Y57.376 E45.21507
G1 X162.677 Y18.659 E49.55584
G1 X161.831 Y18.606 F7800.000
G1 F1800
G1 X164.270 Y16.167 E49.76480
G1 X203.833 Y55.730 E53.15364
G1 X201.394 Y58.169 E53.36261
G1 X161.884 Y18.659 E56.74691
G1 X162.311 Y18.467 F7800.000
G1 X161.619 Y18.783 F7800.000
G1 F1800
G1 X97.272 Y83.130 E61.69118
G1 X94.444 Y85.958 F7800.000
G1 F1800
G1 X15.955 Y164.447 E67.72212
G1 E65.72212 F2400.00000
G92 E0
G1 X55.553 Y204.045 F7800.000
G1 E2.00000 F2400.00000
G1 F1800
G1 X134.042 Y125.556 E8.03080
G1 X134.368 Y123.054 F7800.000
G1 F1200
G1 X96.946 Y85.632 E10.39071
G1 E8.39071 F2400.00000
G92 E0
G1 X164.121 Y18.457 F7800.000
G1 E2.00000 F2400.00000
G1 F1200
G1 X201.543 Y55.879 E4.35994
G1 Z2.800 F7800.000
G1 E2.35994 F2400.00000
G92 E0
G1 X97.095 Y85.034 F7800.000
G1 E2.00000 F2400.00000
G1 F3600
G1 X134.966 Y122.905 E6.24593
G1 X134.218 Y123.652 E6.32977
G1 X96.348 Y85.782 E10.57570
G1 X97.042 Y85.087 E10.65359
G1 X97.095 Y84.135 F7800.000
G1 F3600
G1 X135.865 Y122.905 E15.00030
G1 X134.218 Y124.551 E15.18492
G1 X95.449 Y85.782 E19.53163
G1 X97.042 Y84.188 E19.71031
G1 X97.095 Y83.342 F7800.000
G1 F1800
G1 X136.658 Y122.905 E23.09915
G1 X134.218 Y125.344 E23.30811
G1 X94.656 Y85.782 E26.69696
G1 X97.042 Y83.395 E26.90138
G1 X97.296 Y83.800 F7800.000
G1 X136.870 Y122.728 F7800.000
G1 F1800
G1 X201.217 Y58.381 E31.84554
G1 X163.523 Y18.606 F7800.000
G1 F3600
G1 X164.270 Y17.859 E31.92938
G1 X202.141 Y55.730 E36.17531
G1 X201.394 Y56.477 E36.25915
G1 X163.576 Y18.659 E40.49913
G1 X162.624 Y18.606 F7800.000
G1 F3600
G1 X164.270 Y16.960 E40.68375
G1 X203.040 Y55.730 E45.03046
G1 X201.394 Y57.376 E45.21508
G1 X162.677 Y18.659 E49.55585
G1 X161.831 Y18.606 F7800.000
G1 F1800
G1 X164.270 Y16.167 E49.76481
G1 X203.833 Y55.730 E53.15366
G1 X201.394 Y58.169 E53.36262
G1 X161.884 Y18.659 E56.74692
G1 X162.311 Y18.467 F7800.000
G1 X161.619 Y18.783 F7800.000
G1 F1800
G1 X97.272 Y83.130 E61.69120
G1 X94.444 Y85.958 F7800.000
G1 F1800
G1 X15.955 Y164.447 E67.72213
G1 E65.72213 F2400.00000
G92 E0
G1 X55.553 Y204.045 F7800.000
G1 E2.00000 F2400.00000
G1 F1800
G1 X134.042 Y125.556 E8.03080
G1 X134.368 Y123.054 F7800.000
G1 F1200
G1 X96.946 Y85.632 E10.39071
G1 E8.39071 F2400.00000
G92 E0
G1 X164.121 Y18.457 F7800.000
G1 E2.00000 F2400.00000
G1 F1200
