; generated by Slic3r 1.3.0 on 2023-03-12 at 23:29:00

; external perimeters extrusion width = 0.55mm (4.37mm^3/s)
; perimeters extrusion width = 0.70mm (11.44mm^3/s)
; infill extrusion width = 0.62mm (13.45mm^3/s)
; solid infill extrusion width = 0.70mm (3.81mm^3/s)
; top infill extrusion width = 0.70mm (2.86mm^3/s)
; support material extrusion width = 0.55mm (8.74mm^3/s)

M107
M190 S70 ; set bed temperature and wait for it to be reached
M104 S230 ; set temperature
G28 ; home all axes
G1 Z5 F5000 ; lift nozzle

; Filament gcode

M109 S230 ; set temperature and wait for it to be reached
G21 ; set units to millimeters
G90 ; use absolute coordinates
M82 ; use absolute distances for extrusion
G92 E0
G1 Z0.400 F7800.000
G1 E-2.00000 F2400.00000
G92 E0
G1 X10.090 Y157.988 F7800.000
G1 E2.00000 F2400.00000
G1 F1800
G1 X158.285 Y9.793 E26.89080
G1 X160.174 Y8.465 E27.16503
G1 X162.402 Y7.856 E27.43925
G1 X164.703 Y8.038 E27.71348
G1 X166.808 Y8.988 E27.98770
G1 X167.781 Y9.793 E28.13767
G1 X210.207 Y52.219 E35.26358
G1 X211.535 Y54.108 E35.53781
G1 X212.144 Y56.336 E35.81203
G1 X211.962 Y58.637 E36.08626
G1 X211.012 Y60.742 E36.36048
G1 X210.207 Y61.715 E36.51045
G1 X61.715 Y210.207 E61.45113
G1 X59.826 Y211.535 E61.72536
G1 X57.598 Y212.144 E61.99958
G1 X55.297 Y211.962 E62.27380
G1 X53.192 Y211.012 E62.54803
G1 X52.219 Y210.207 E62.69800
G1 X9.793 Y167.781 E69.82391
G1 X8.465 Y165.892 E70.09813
G1 X7.856 Y163.664 E70.37236
G1 X8.038 Y161.363 E70.64658
G1 X8.988 Y159.258 E70.92081
G1 X9.793 Y158.285 E71.07076
G1 X10.037 Y158.041 E71.11175
G1 E69.11175 F2400.00000
G92 E0
G1 X18.218 Y161.619 F7800.000
G1 E2.00000 F2400.00000
G1 F1800
G1 X83.130 Y96.706 E12.90265
G1 X123.294 Y136.870 E19.64851
G1 X58.381 Y201.782 E30.55115
G1 X18.271 Y161.672 E37.28810
G1 X17.767 Y161.403 F7800.000
G1 E35.28810 F2400.00000
G92 E0
G1 X83.291 Y95.858 F7800.000
G1 E2.00000 F2400.00000
G1 F1800
G1 X84.544 Y94.605 E2.21041
G1 X125.395 Y135.456 E9.07168
G1 X124.142 Y136.709 E9.28209
G1 X83.344 Y95.911 E16.13445
G1 E14.13445 F2400.00000
G92 E0
G1 X17.369 Y161.780 F7800.000
G1 E2.00000 F2400.00000
G1 F1800
G1 X58.220 Y202.631 E8.86126
G1 X56.967 Y203.884 E9.07168
G1 X16.116 Y163.033 E15.93294
G1 X17.316 Y161.833 E16.13444
G1 E14.13444 F2400.00000
G92 E0
G1 X85.393 Y94.444 F7800.000
G1 E2.00000 F2400.00000
G1 F1800
G1 X125.556 Y134.607 E8.74586
G1 X204.045 Y56.118 E21.92879
G1 X204.894 Y56.967 E22.07131
G1 X56.967 Y204.894 E46.91699
G1 X15.106 Y163.033 E53.94788
G1 X163.033 Y15.106 E78.79356
G1 X163.879 Y15.952 E78.93560
G1 X85.446 Y94.391 E92.10963
G1 X85.040 Y94.798 F7800.000
G1 X84.716 Y94.272 F7800.000
G1 F1800
G1 X163.203 Y15.782 E99.49368
G1 E97.49368 F2400.00000
G92 E0
G1 X204.217 Y56.795 F7800.000
G1 E2.00000 F2400.00000
G1 F1800
G1 X125.728 Y135.284 E9.38375
G1 X124.516 Y135.830 F7800.000
G1 F1800
G1 X84.170 Y95.484 E18.60370
G1 X82.958 Y96.030 F7800.000
G1 F1800
G1 X17.541 Y161.447 E24.75773
G1 X16.995 Y162.659 F7800.000
G1 F1800
G1 X57.341 Y203.005 E33.97768
G1 X58.553 Y202.459 F7800.000
G1 F1800
G1 X123.970 Y137.042 E40.13179
G1 Z0.400 F7800.000
G1 Z0.700 F7800.000
G1 X83.130 Y96.883 F7800.000
G1 F1800
G1 X123.117 Y136.870 E43.55698
G1 X58.381 Y201.606 E49.10208
G1 X18.394 Y161.619 E52.52726
G1 X83.077 Y96.936 E58.06783
G1 X83.483 Y96.530 F7800.000
G1 X83.796 Y95.858 F7800.000
G1 F3600
G1 X84.544 Y95.110 E58.15166
G1 X124.890 Y135.456 E62.67507
G1 X124.142 Y136.204 E62.75891
G1 X83.849 Y95.911 E67.27636
G1 X82.897 Y95.858 F7800.000
G1 F3600
G1 X84.544 Y94.211 E67.46098
G1 X125.789 Y135.456 E72.08517
G1 X124.142 Y137.103 E72.26979
G1 X82.951 Y95.911 E76.88802
G1 X17.369 Y162.285 F7800.000
G1 F3600
G1 X57.715 Y202.631 E81.41143
G1 X56.967 Y203.379 E81.49527
G1 X16.621 Y163.033 E86.01867
G1 X17.316 Y162.338 E86.09656
G1 X17.369 Y161.386 F7800.000
G1 F3600
G1 X58.614 Y202.631 E90.72075
G1 X56.967 Y204.278 E90.90536
G1 X15.722 Y163.033 E95.52955
G1 X17.316 Y161.439 E95.70822
G1 X85.569 Y94.444 F7800.000
G1 F1800
G1 X125.556 Y134.431 E99.13340
G1 X204.045 Y55.942 E105.85658
G1 X205.070 Y56.967 E105.94440
G1 X56.967 Y205.070 E118.63061
G1 X14.929 Y163.033 E122.23144
G1 X163.033 Y14.929 E134.91765
G1 X164.051 Y15.947 E135.00481
G1 X85.623 Y94.391 E141.72344
G1 X85.217 Y94.799 F7800.000
G1 X84.859 Y94.129 F7800.000
G1 F1200
G1 X163.344 Y15.636 E153.14532
G1 E151.14532 F2400.00000
G92 E0
G1 X204.360 Y56.653 F7800.000
G1 E2.00000 F2400.00000
G1 F1200
G1 X125.871 Y135.141 E13.42174
G1 X124.291 Y135.605 F7800.000
G1 F1200
G1 X84.395 Y95.709 E15.93769
G1 X82.815 Y96.172 F7800.000
G1 F1200
G1 X17.683 Y161.304 E25.41570
G1 X17.220 Y162.884 F7800.000
G1 F1200
G1 X57.116 Y202.780 E27.93164
G1 X58.696 Y202.317 F7800.000
G1 F1200
G1 X123.828 Y137.185 E37.40976
G1 Z1.000 F7800.000
G1 X83.130 Y96.883 F7800.000
G1 F1800
G1 X123.117 Y136.870 E40.83494
G1 X58.381 Y201.606 E46.38005
G1 X18.394 Y161.619 E49.80523
G1 X83.077 Y96.936 E55.34579
G1 X83.483 Y96.530 F7800.000
G1 X83.796 Y95.858 F7800.000
G1 F3600
G1 X84.544 Y95.110 E55.42963
G1 X124.890 Y135.456 E59.95304
G1 X124.142 Y136.204 E60.03687
G1 X83.849 Y95.911 E64.55433
G1 X82.897 Y95.858 F7800.000
G1 F3600
G1 X84.544 Y94.211 E64.73895
G1 X125.789 Y135.456 E69.36313
G1 X124.142 Y137.103 E69.54775
G1 X82.951 Y95.911 E74.16599
G1 X17.369 Y162.285 F7800.000
G1 F3600
G1 X57.715 Y202.631 E78.68940
G1 X56.967 Y203.379 E78.77323
G1 X16.621 Y163.033 E83.29664
G1 X17.316 Y162.338 E83.37453
G1 X17.369 Y161.386 F7800.000
G1 F3600
G1 X58.614 Y202.631 E87.99871
G1 X56.967 Y204.278 E88.18333
G1 X15.722 Y163.033 E92.80752
G1 X17.316 Y161.439 E92.98619
G1 X85.569 Y94.444 F7800.000
G1 F1800
G1 X125.556 Y134.431 E96.41137
G1 X204.045 Y55.942 E103.13455
G1 X205.070 Y56.967 E103.22237
G1 X56.967 Y205.070 E115.90858
G1 X14.929 Y163.033 E119.50941
G1 X163.033 Y14.929 E132.19562
G1 X164.058 Y15.955 E132.28344
G1 X85.622 Y94.391 E139.00207
G1 X85.217 Y94.799 F7800.000
G1 X84.859 Y94.129 F7800.000
G1 F1200
G1 X163.347 Y15.640 E150.42379
G1 E148.42379 F2400.00000
G92 E0
G1 X204.360 Y56.653 F7800.000
G1 E2.00000 F2400.00000
G1 F1200
G1 X125.871 Y135.141 E13.42174
G1 X124.291 Y135.605 F7800.000
G1 F1200
G1 X84.395 Y95.709 E15.93769
G1 X82.815 Y96.172 F7800.000
G1 F1200
G1 X17.683 Y161.304 E25.41573
G1 X17.220 Y162.884 F7800.000
G1 F1200
G1 X57.116 Y202.780 E27.93167
G1 X58.696 Y202.317 F7800.000
G1 F1200
G1 X123.828 Y137.184 E37.40982
G1 Z1.300 F7800.000
G1 X83.130 Y96.883 F7800.000
G1 F1800
G1 X123.117 Y136.870 E40.83500
G1 X58.381 Y201.606 E46.38011
G1 X18.394 Y161.619 E49.80529
G1 X83.077 Y96.936 E55.34585
G1 X83.483 Y96.530 F7800.000
G1 X83.796 Y95.858 F7800.000
G1 F3600
G1 X84.544 Y95.110 E55.42969
G1 X124.890 Y135.456 E59.95309
G1 X124.142 Y136.204 E60.03693
G1 X83.849 Y95.911 E64.55439
G1 X82.897 Y95.858 F7800.000
G1 F3600
G1 X84.544 Y94.211 E64.73901
G1 X125.789 Y135.456 E69.36319
G1 X124.142 Y137.103 E69.54781
G1 X82.951 Y95.911 E74.16605
G1 X17.369 Y162.285 F7800.000
G1 F3600
G1 X57.715 Y202.631 E78.68945
G1 X56.967 Y203.379 E78.77329
G1 X16.621 Y163.033 E83.29669
G1 X17.316 Y162.338 E83.37459
G1 X17.369 Y161.386 F7800.000
G1 F3600
G1 X58.614 Y202.631 E87.99877
G1 X56.967 Y204.278 E88.18339
G1 X15.722 Y163.033 E92.80757
G1 X17.316 Y161.439 E92.98625
G1 X85.569 Y94.444 F7800.000
G1 F1800
G1 X125.556 Y134.431 E96.41143
G1 X204.045 Y55.942 E103.13460
G1 X205.070 Y56.967 E103.22243
G1 X56.967 Y205.070 E115.90863
G1 X14.929 Y163.033 E119.50947
G1 X163.033 Y14.929 E132.19567
G1 X164.058 Y15.955 E132.28350
G1 X85.622 Y94.391 E139.00213
G1 X85.217 Y94.799 F7800.000
G1 X84.859 Y94.129 F7800.000
G1 F1200
G1 X163.347 Y15.640 E150.42386
G1 E148.42386 F2400.00000
G92 E0
G1 X204.360 Y56.653 F7800.000
G1 E2.00000 F2400.00000
G1 F1200
G1 X125.871 Y135.141 E13.42174
G1 X124.291 Y135.605 F7800.000
G1 F1200
G1 X84.395 Y95.709 E15.93769
G1 X82.815 Y96.172 F7800.000
G1 F1200
G1 X17.683 Y161.304 E25.41572
G1 X17.220 Y162.884 F7800.000
G1 F1200
G1 X57.116 Y202.780 E27.93165
G1 X58.696 Y202.317 F7800.000
G1 F1200
G1 X123.828 Y137.185 E37.40977
G1 Z1.600 F7800.000
G1 X83.130 Y96.883 F7800.000
G1 F1800
G1 X123.117 Y136.870 E40.83495
G1 X58.381 Y201.606 E46.38006
G1 X18.394 Y161.619 E49.80524
G1 X83.077 Y96.936 E55.34580
G1 X83.483 Y96.530 F7800.000
G1 X83.796 Y95.858 F7800.000
G1 F3600
G1 X84.544 Y95.110 E55.42964
G1 X124.890 Y135.456 E59.95305
G1 X124.142 Y136.204 E60.03688
G1 X83.849 Y95.911 E64.55434
G1 X82.897 Y95.858 F7800.000
G1 F3600
G1 X84.544 Y94.211 E64.73896
G1 X125.789 Y135.456 E69.36314
G1 X124.142 Y137.103 E69.54776
G1 X82.951 Y95.911 E74.16600
G1 X17.369 Y162.285 F7800.000
G1 F3600
G1 X57.715 Y202.631 E78.68941
G1 X56.967 Y203.379 E78.77324
G1 X16.621 Y163.033 E83.29665
G1 X17.316 Y162.338 E83.37454
G1 X17.369 Y161.386 F7800.000
G1 F3600
G1 X58.614 Y202.631 E87.99872
G1 X56.967 Y204.278 E88.18334
G1 X15.722 Y163.033 E92.80753
G1 X17.316 Y161.439 E92.98620
G1 X85.569 Y94.444 F7800.000
G1 F1800
G1 X125.556 Y134.431 E96.41138
G1 X204.045 Y55.942 E103.13456
G1 X205.070 Y56.967 E103.22238
G1 X56.967 Y205.070 E115.90859
G1 X14.929 Y163.033 E119.50942
G1 X163.033 Y14.929 E132.19562
G1 X164.058 Y15.955 E132.28345
G1 X85.622 Y94.391 E139.00208
G1 X85.217 Y94.799 F7800.000
G1 X84.859 Y94.129 F7800.000
G1 F1200
G1 X163.347 Y15.640 E150.42381
G1 E148.42381 F2400.00000
G92 E0
G1 X204.360 Y56.653 F7800.000
G1 E2.00000 F2400.00000
G1 F1200
G1 X125.871 Y135.141 E13.42174
G1 X124.291 Y135.605 F7800.000
G1 F1200
G1 X84.395 Y95.709 E15.93769
G1 X82.815 Y96.172 F7800.000
G1 F1200
G1 X17.683 Y161.304 E25.41572
G1 X17.220 Y162.884 F7800.000
G1 F1200
G1 X57.116 Y202.780 E27.93166
G1 X58.696 Y202.317 F7800.000
G1 F1200
G1 X123.828 Y137.185 E37.40981
G1 Z1.900 F7800.000
G1 X83.130 Y96.883 F7800.000
G1 F1800
G1 X123.117 Y136.870 E40.83499
G1 X58.381 Y201.606 E46.38009
G1 X18.394 Y161.619 E49.80528
G1 X83.077 Y96.936 E55.34584
G1 X83.483 Y96.530 F7800.000
G1 X83.796 Y95.858 F7800.000
G1 F3600
G1 X84.544 Y95.110 E55.42968
G1 X124.890 Y135.456 E59.95308
G1 X124.142 Y136.204 E60.03692
G1 X83.849 Y95.911 E64.55438
G1 X82.897 Y95.858 F7800.000
G1 F3600
G1 X84.544 Y94.211 E64.73900
G1 X125.789 Y135.456 E69.36318
G1 X124.142 Y137.103 E69.54780
G1 X82.951 Y95.911 E74.16604
G1 X17.369 Y162.285 F7800.000
G1 F3600
G1 X57.715 Y202.631 E78.68944
G1 X56.967 Y203.379 E78.77328
G1 X16.621 Y163.033 E83.29668
G1 X17.316 Y162.338 E83.37457
G1 X17.369 Y161.386 F7800.000
G1 F3600
G1 X58.614 Y202.631 E87.99876
G1 X56.967 Y204.278 E88.18338
G1 X15.722 Y163.033 E92.80756
G1 X17.316 Y161.439 E92.98624
G1 X85.569 Y94.444 F7800.000
G1 F1800
G1 X125.556 Y134.431 E96.41142
G1 X204.045 Y55.942 E103.13459
G1 X205.070 Y56.967 E103.22242
G1 X56.967 Y205.070 E115.90862
G1 X14.929 Y163.033 E119.50946
G1 X163.033 Y14.929 E132.19566
G1 X164.058 Y15.955 E132.28349
G1 X85.622 Y94.391 E139.00212
G1 X85.217 Y94.799 F7800.000
G1 X84.859 Y94.129 F7800.000
G1 F1200
G1 X163.347 Y15.640 E150.42385
G1 E148.42385 F2400.00000
G92 E0
G1 X204.360 Y56.653 F7800.000
G1 E2.00000 F2400.00000
G1 F1200
G1 X125.871 Y135.141 E13.42174
G1 X124.291 Y135.605 F7800.000
G1 F1200
G1 X84.395 Y95.709 E15.93769
G1 X82.815 Y96.172 F7800.000
G1 F1200
G1 X17.683 Y161.304 E25.41572
G1 X17.220 Y162.884 F7800.000
G1 F1200
G1 X57.116 Y202.780 E27.93166
G1 X58.696 Y202.317 F7800.000
G1 F1200
G1 X123.828 Y137.185 E37.40978
G1 Z2.200 F7800.000
G1 X83.130 Y96.883 F7800.000
G1 F1800
G1 X123.117 Y136.870 E40.83497
G1 X58.381 Y201.606 E46.38007
G1 X18.394 Y161.619 E49.80526
G1 X83.077 Y96.936 E55.34582
G1 X83.483 Y96.530 F7800.000
G1 X83.796 Y95.858 F7800.000
G1 F3600
G1 X84.544 Y95.110 E55.42966
G1 X124.890 Y135.456 E59.95306
G1 X124.142 Y136.204 E60.03690
G1 X83.849 Y95.911 E64.55435
G1 X82.897 Y95.858 F7800.000
G1 F3600
G1 X84.544 Y94.211 E64.73897
G1 X125.789 Y135.456 E69.36316
G1 X124.142 Y137.103 E69.54778
G1 X82.951 Y95.911 E74.16602
G1 X17.369 Y162.285 F7800.000
G1 F3600
G1 X57.715 Y202.631 E78.68942
G1 X56.967 Y203.379 E78.77326
G1 X16.621 Y163.033 E83.29666
G1 X17.316 Y162.338 E83.37455
G1 X17.369 Y161.386 F7800.000
G1 F3600
G1 X58.614 Y202.631 E87.99874
G1 X56.967 Y204.278 E88.18336
G1 X15.722 Y163.033 E92.80754
G1 X17.316 Y161.439 E92.98621
G1 X85.569 Y94.444 F7800.000
G1 F1800
G1 X125.556 Y134.431 E96.41140
G1 X204.045 Y55.942 E103.13457
G1 X205.070 Y56.967 E103.22240
G1 X56.967 Y205.070 E115.90860
G1 X14.929 Y163.033 E119.50944
G1 X163.033 Y14.929 E132.19564
G1 X164.058 Y15.955 E132.28346
G1 X85.622 Y94.391 E139.00210
G1 X85.217 Y94.799 F7800.000
G1 X84.859 Y94.129 F7800.000
G1 F1200
G1 X163.347 Y15.640 E150.42382
G1 E148.42382 F2400.00000
G92 E0
G1 X204.360 Y56.653 F7800.000
G1 E2.00000 F2400.00000
G1 F1200
G1 X125.871 Y135.141 E13.42174
G1 X124.291 Y135.605 F7800.000
G1 F1200
G1 X84.395 Y95.709 E15.93769
G1 X82.815 Y96.172 F7800.000
G1 F1200
G1 X17.683 Y161.304 E25.41577
G1 X17.220 Y162.884 F7800.000
G1 F1200
G1 X57.116 Y202.780 E27.93171
G1 X58.696 Y202.317 F7800.000
G1 F1200
G1 X123.828 Y137.185 E37.40983
G1 Z2.500 F7800.000
G1 X83.130 Y96.883 F7800.000
G1 F1800
G1 X123.117 Y136.870 E40.83501
G1 X58.381 Y201.606 E46.38012
G1 X18.394 Y161.619 E49.80530
G1 X83.077 Y96.936 E55.34586
G1 X83.483 Y96.530 F7800.000
G1 X83.796 Y95.858 F7800.000
G1 F3600
G1 X84.544 Y95.110 E55.42970
G1 X124.890 Y135.456 E59.95311
G1 X124.142 Y136.204 E60.03694
G1 X83.849 Y95.911 E64.55440
G1 X82.897 Y95.858 F7800.000
G1 F3600
G1 X84.544 Y94.211 E64.73902
G1 X125.789 Y135.456 E69.36320
G1 X124.142 Y137.103 E69.54782
G1 X82.951 Y95.911 E74.16606
G1 X17.369 Y162.285 F7800.000
G1 F3600
G1 X57.715 Y202.631 E78.68947
G1 X56.967 Y203.379 E78.77330
G1 X16.621 Y163.033 E83.29671
G1 X17.316 Y162.338 E83.37460
G1 X17.369 Y161.386 F7800.000
G1 F3600
G1 X58.614 Y202.631 E87.99878
G1 X56.967 Y204.278 E88.18340
G1 X15.722 Y163.033 E92.80759
G1 X17.316 Y161.439 E92.98626
G1 X85.569 Y94.444 F7800.000
G1 F1800
G1 X125.556 Y134.431 E96.41144
G1 X204.045 Y55.942 E103.13462
G1 X205.070 Y56.967 E103.22244
G1 X56.967 Y205.070 E115.90865
G1 X14.929 Y163.033 E119.50948
G1 X163.033 Y14.929 E132.19569
G1 X164.058 Y15.955 E132.28351
G1 X85.622 Y94.391 E139.00214
G1 X85.217 Y94.799 F7800.000
G1 X84.859 Y94.129 F7800.000
G1 F1200
G1 X163.347 Y15.640 E150.42383
G1 E148.42383 F2400.00000
G92 E0
G1 X204.360 Y56.653 F7800.000
G1 E2.00000 F2400.00000
G1 F1200
G1 X125.871 Y135.141 E13.42174
G1 X124.291 Y135.605 F7800.000
G1 F1200
G1 X84.395 Y95.709 E15.93769
G1 X82.815 Y96.172 F7800.000
G1 F1200
G1 X17.683 Y161.304 E25.41573
G1 X17.220 Y162.884 F7800.000
G1 F1200
G1 X57.116 Y202.780 E27.93167
G1 X58.696 Y202.317 F7800.000
G1 F1200
G1 X123.828 Y137.185 E37.40979
G1 Z2.800 F7800.000
G1 X83.130 Y96.883 F7800.000
G1 F1800
G1 X123.117 Y136.870 E40.83498
G1 X58.381 Y201.606 E46.38008
G1 X18.394 Y161.619 E49.80527
G1 X83.077 Y96.936 E55.34583
G1 X83.483 Y96.530 F7800.000
G1 X83.796 Y95.858 F7800.000
G1 F3600
G1 X84.544 Y95.110 E55.42967
G1 X124.890 Y135.456 E59.95307
G1 X124.142 Y136.204 E60.03691
G1 X83.849 Y95.911 E64.55437
G1 X82.897 Y95.858 F7800.000
G1 F3600
G1 X84.544 Y94.211 E64.73898
G1 X125.789 Y135.456 E69.36317
G1 X124.142 Y137.103 E69.54779
G1 X82.951 Y95.911 E74.16603
G1 X17.369 Y162.285 F7800.000
G1 F3600
G1 X57.715 Y202.631 E78.68943
G1 X56.967 Y203.379 E78.77327
G1 X16.621 Y163.033 E83.29667
G1 X17.316 Y162.338 E83.37456
G1 X17.369 Y161.386 F7800.000
G1 F3600
G1 X58.614 Y202.631 E87.99875
G1 X56.967 Y204.278 E88.18337
G1 X15.722 Y163.033 E92.80755
G1 X17.316 Y161.439 E92.98622
G1 X85.569 Y94.444 F7800.000
G1 F1800
G1 X125.556 Y134.431 E96.41141
G1 X204.045 Y55.942 E103.13458
G1 X205.070 Y56.967 E103.22241
G1 X56.967 Y205.070 E115.90861
G1 X14.929 Y163.033 E119.50944
G1 X163.033 Y14.929 E132.19565
G1 X164.058 Y15.955 E132.28347
G1 X85.622 Y94.391 E139.00211
G1 X85.217 Y94.799 F7800.000
G1 X84.859 Y94.129 F7800.000
G1 F1200
G1 X163.347 Y15.640 E150.42385
G1 E148.42385 F2400.00000
G92 E0
G1 X204.360 Y56.653 F7800.000
G1 E2.00000 F2400.00000
G1 F1200
G1 X125.871 Y135.141 E13.42174
G1 X124.291 Y135.605 F7800.000
G1 F1200
G1 X84.395 Y95.709 E15.93768
G1 X82.815 Y96.172 F7800.000
G1 F1200
G1 X17.683 Y161.304 E25.41572
G1 X17.220 Y162.884 F7800.000
G1 F1200
