; generated by Slic3r 1.3.0 on 2023-03-13 at 00:46:16

; external perimeters extrusion width = 0.55mm (4.37mm^3/s)
; perimeters extrusion width = 0.70mm (11.44mm^3/s)
; infill extrusion width = 0.62mm (13.45mm^3/s)
; solid infill extrusion width = 0.70mm (3.81mm^3/s)
; top infill extrusion width = 0.70mm (2.86mm^3/s)
; support material extrusion width = 0.55mm (8.74mm^3/s)

M107
M190 S70 ; set bed temperature and wait for it to be reached
M104 S230 ; set temperature
G28 ; home all axes
G1 Z5 F5000 ; lift nozzle

; Filament gcode

M109 S230 ; set temperature and wait for it to be reached
G21 ; set units to millimeters
G90 ; use absolute coordinates
M82 ; use absolute distances for extrusion
G92 E0
G1 Z0.400 F7800.000
G1 E-2.00000 F2400.00000
G92 E0
G1 X10.090 Y157.988 F7800.000
G1 E2.00000 F2400.00000
G1 F1800
G1 X158.285 Y9.793 E26.89080
G1 X160.174 Y8.465 E27.16503
G1 X162.402 Y7.856 E27.43925
G1 X164.703 Y8.038 E27.71348
G1 X166.808 Y8.988 E27.98770
G1 X167.781 Y9.793 E28.13767
G1 X210.207 Y52.219 E35.26358
G1 X211.535 Y54.108 E35.53781
G1 X212.144 Y56.336 E35.81203
G1 X211.962 Y58.637 E36.08626
G1 X211.012 Y60.742 E36.36048
G1 X210.207 Y61.715 E36.51045
G1 X61.715 Y210.207 E61.45113
G1 X59.826 Y211.535 E61.72536
G1 X57.598 Y212.144 E61.99958
G1 X55.297 Y211.962 E62.27380
G1 X53.192 Y211.012 E62.54803
G1 X52.219 Y210.207 E62.69800
G1 X9.793 Y167.781 E69.82391
G1 X8.465 Y165.892 E70.09813
G1 X7.856 Y163.664 E70.37236
G1 X8.038 Y161.363 E70.64658
G1 X8.988 Y159.258 E70.92081
G1 X9.793 Y158.285 E71.07076
G1 X10.037 Y158.041 E71.11175
G1 E69.11175 F2400.00000
G92 E0
G1 X31.818 Y162.826 F7800.000
G1 E2.00000 F2400.00000
G1 F1800
G1 X31.818 Y155.755 E2.83980
G1 X24.747 Y155.755 E3.67960
G1 X24.747 Y155.089 E3.75872
G1 X83.130 Y96.706 E13.56465
G1 X123.294 Y136.870 E20.31051
G1 X67.174 Y192.990 E29.73639
G1 X67.174 Y191.111 E29.95959
G1 X60.103 Y191.111 E30.79939
G1 X60.103 Y184.040 E31.63919
G1 X53.031 Y184.040 E32.47898
G1 X53.031 Y176.969 E33.31878
G1 X45.960 Y176.969 E34.15858
G1 X45.960 Y169.897 E34.99838
G1 X38.889 Y169.897 E35.83817
G1 X38.889 Y162.826 E36.67797
G1 X31.893 Y162.826 E37.50886
G1 X31.335 Y162.697 F7800.000
G1 E35.50886 F2400.00000
G92 E0
G1 X97.565 Y97.080 F7800.000
G1 E2.00000 F2400.00000
G1 F1800
G1 X104.636 Y97.080 E2.83980
G1 X104.636 Y104.151 E3.67959
G1 X111.707 Y104.151 E4.51939
G1 X111.707 Y111.222 E5.35919
G1 X118.778 Y111.222 E6.19899
G1 X118.778 Y118.293 E7.03878
G1 X125.849 Y118.293 E7.87858
G1 X125.849 Y125.364 E8.71838
G1 X132.920 Y125.364 E9.55818
G1 X132.920 Y126.920 E9.74303
G1 X124.142 Y135.699 E11.21743
G1 X84.301 Y95.858 E17.90906
G1 X90.494 Y89.665 E18.94917
G1 X90.494 Y90.009 E18.98994
G1 X97.565 Y90.009 E19.82974
G1 X97.565 Y97.005 E20.66063
G1 X98.279 Y96.365 F7800.000
G1 F1800
G1 X105.350 Y96.365 E21.50043
G1 X105.350 Y103.436 E22.34022
G1 X112.421 Y103.436 E23.18002
G1 X112.421 Y110.508 E24.01982
G1 X119.492 Y110.508 E24.85962
G1 X119.492 Y117.579 E25.69941
G1 X126.564 Y117.579 E26.53921
G1 X126.563 Y124.650 E27.37901
G1 X133.635 Y124.650 E28.21881
G1 X133.635 Y127.216 E28.52361
G1 X124.142 Y136.709 E30.11796
G1 X83.291 Y95.858 E36.97922
G1 X91.208 Y87.941 E38.30892
G1 X91.208 Y89.294 E38.46964
G1 X98.279 Y89.294 E39.30944
G1 X98.279 Y96.290 E40.14033
G1 X98.993 Y95.651 F7800.000
G1 F1800
G1 X98.993 Y88.580 E40.98013
G1 X91.922 Y88.580 E41.81992
G1 X91.922 Y87.914 E41.89904
G1 X151.719 Y28.117 E51.94250
G1 X191.883 Y68.281 E58.68837
G1 X134.349 Y125.815 E68.35178
G1 X134.349 Y123.936 E68.57498
G1 X127.278 Y123.936 E69.41478
G1 X127.278 Y116.864 E70.25458
G1 X120.207 Y116.864 E71.09438
G1 X120.207 Y109.793 E71.93417
G1 X113.136 Y109.793 E72.77397
G1 X113.136 Y102.722 E73.61377
G1 X106.064 Y102.722 E74.45357
G1 X106.064 Y95.651 E75.29336
G1 X99.068 Y95.651 E76.12425
G1 X98.510 Y95.522 F7800.000
G1 E74.12425 F2400.00000
G92 E0
G1 X166.154 Y28.490 F7800.000
G1 E2.00000 F2400.00000
G1 F1800
G1 X173.226 Y28.490 E2.83980
G1 X173.226 Y35.561 E3.67959
G1 X180.297 Y35.561 E4.51939
G1 X180.297 Y42.632 E5.35919
G1 X187.368 Y42.632 E6.19898
G1 X187.368 Y49.703 E7.03878
G1 X194.439 Y49.703 E7.87858
G1 X194.439 Y56.774 E8.71837
G1 X201.510 Y56.774 E9.55817
G1 X201.510 Y58.331 E9.74303
G1 X192.732 Y67.109 E11.21742
G1 X152.891 Y27.269 E17.90904
G1 X159.083 Y21.076 E18.94916
G1 X159.083 Y21.419 E18.98993
G1 X166.154 Y21.419 E19.82973
G1 X166.154 Y28.415 E20.66062
G1 X166.869 Y27.776 F7800.000
G1 F1800
G1 X173.940 Y27.776 E21.50041
G1 X173.940 Y34.847 E22.34021
G1 X181.011 Y34.847 E23.18000
G1 X181.011 Y41.918 E24.01980
G1 X188.082 Y41.918 E24.85960
G1 X188.082 Y48.989 E25.69939
G1 X195.153 Y48.989 E26.53919
G1 X195.153 Y56.060 E27.37899
G1 X202.224 Y56.060 E28.21878
G1 X202.224 Y58.627 E28.52359
G1 X192.732 Y68.119 E30.11793
G1 X151.881 Y27.269 E36.97920
G1 X159.798 Y19.352 E38.30889
G1 X159.798 Y20.705 E38.46961
G1 X166.869 Y20.705 E39.30941
G1 X166.869 Y27.701 E40.14030
G1 E38.14030 F2400.00000
G92 E0
G1 X30.390 Y164.255 F7800.000
G1 E2.00000 F2400.00000
G1 F1800
G1 X37.461 Y164.255 E2.83980
G1 X37.461 Y171.326 E3.67959
G1 X44.532 Y171.326 E4.51939
G1 X44.532 Y178.397 E5.35919
G1 X51.603 Y178.397 E6.19899
G1 X51.603 Y185.468 E7.03878
G1 X58.674 Y185.468 E7.87858
G1 X58.674 Y192.539 E8.71838
G1 X65.745 Y192.539 E9.55818
G1 X65.745 Y194.095 E9.74303
G1 X56.967 Y202.874 E11.21743
G1 X17.126 Y163.033 E17.90906
G1 X23.319 Y156.840 E18.94917
G1 X23.319 Y157.184 E18.98994
G1 X30.390 Y157.184 E19.82974
G1 X30.390 Y164.180 E20.66063
G1 X31.104 Y163.541 F7800.000
G1 F1800
G1 X38.175 Y163.541 E21.50043
G1 X38.175 Y170.612 E22.34022
G1 X45.246 Y170.612 E23.18002
G1 X45.246 Y177.683 E24.01982
G1 X52.317 Y177.683 E24.85961
G1 X52.317 Y184.754 E25.69941
G1 X59.388 Y184.754 E26.53921
G1 X59.388 Y191.825 E27.37901
G1 X66.459 Y191.825 E28.21880
G1 X66.459 Y194.391 E28.52361
G1 X56.967 Y203.884 E30.11795
G1 X16.116 Y163.033 E36.97922
G1 X24.033 Y155.116 E38.30891
G1 X24.033 Y156.470 E38.46963
G1 X31.104 Y156.469 E39.30943
G1 X31.104 Y163.466 E40.14032
G1 E38.14032 F2400.00000
G92 E0
G1 X167.583 Y27.062 F7800.000
G1 E2.00000 F2400.00000
G1 F1800
G1 X174.654 Y27.062 E2.83980
G1 X174.654 Y34.133 E3.67959
G1 X181.725 Y34.133 E4.51939
G1 X181.725 Y41.204 E5.35919
G1 X188.796 Y41.204 E6.19898
G1 X188.796 Y48.275 E7.03878
G1 X195.867 Y48.275 E7.87858
G1 X195.867 Y55.346 E8.71837
G1 X202.938 Y55.346 E9.55817
G1 X202.938 Y57.226 E9.78138
G1 X204.045 Y56.118 E9.96733
G1 X204.894 Y56.967 E10.10985
G1 X56.967 Y204.894 E34.95552
G1 X15.106 Y163.033 E41.98642
G1 X163.033 Y15.106 E66.83209
G1 X163.879 Y15.952 E66.97417
G1 X160.512 Y19.325 E67.54018
G1 X160.512 Y19.991 E67.61928
G1 X167.583 Y19.991 E68.45908
G1 X167.583 Y26.987 E69.28997
G1 X167.712 Y27.545 F7800.000
G1 E67.28997 F2400.00000
G92 E0
G1 X159.314 Y21.856 F7800.000
G1 E2.00000 F2400.00000
G1 F1800
G1 X153.623 Y27.546 E2.96707
G1 X154.134 Y28.057 E3.05389
G1 X160.336 Y21.856 E4.10778
G1 X161.358 Y21.856 E4.23057
G1 X154.645 Y28.568 E5.37129
G1 X155.156 Y29.079 E5.45812
G1 X162.379 Y21.856 E6.68566
G1 X163.401 Y21.856 E6.80845
G1 X155.667 Y29.590 E8.12282
G1 X156.178 Y30.101 E8.20964
G1 X164.423 Y21.856 E9.61084
G1 X165.445 Y21.856 E9.73363
G1 X156.689 Y30.612 E11.22165
G1 X157.200 Y31.123 E11.30847
G1 X165.718 Y22.604 E12.75608
G1 X165.718 Y23.626 E12.87887
G1 X157.710 Y31.634 E14.23965
G1 X158.221 Y32.145 E14.32647
G1 X165.718 Y24.648 E15.60043
G1 X165.718 Y25.670 E15.72322
G1 X158.732 Y32.656 E16.91035
G1 X159.243 Y33.167 E16.99717
G1 X165.718 Y26.692 E18.09747
G1 X165.718 Y27.714 E18.22026
G1 X159.754 Y33.677 E19.23374
G1 X160.265 Y34.188 E19.32057
G1 X165.718 Y28.735 E20.24722
G1 X165.718 Y28.927 E20.27019
G1 X166.549 Y28.927 E20.37001
G1 X160.776 Y34.699 E21.35100
G1 X161.287 Y35.210 E21.43783
G1 X167.571 Y28.927 E22.50565
G1 X168.592 Y28.927 E22.62844
G1 X161.798 Y35.721 E23.78308
G1 X162.309 Y36.232 E23.86991
G1 X169.614 Y28.927 E25.11138
G1 X170.636 Y28.927 E25.23417
G1 X162.820 Y36.743 E26.56246
G1 X163.331 Y37.254 E26.64929
G1 X171.658 Y28.927 E28.06441
G1 X172.680 Y28.927 E28.18720
G1 X163.842 Y37.765 E29.68914
G1 X164.353 Y38.276 E29.77597
G1 X172.789 Y29.839 E31.20965
G1 X172.789 Y30.861 E31.33243
G1 X164.863 Y38.787 E32.67929
G1 X165.374 Y39.298 E32.76611
G1 X172.789 Y31.883 E34.02614
G1 X172.789 Y32.905 E34.14893
G1 X165.885 Y39.809 E35.32213
G1 X166.396 Y40.320 E35.40895
G1 X172.789 Y33.927 E36.49533
G1 X172.789 Y34.949 E36.61812
G1 X166.907 Y40.830 E37.61766
G1 X167.418 Y41.341 E37.70449
G1 X172.789 Y35.970 E38.61721
G1 X172.789 Y35.998 E38.62049
G1 X173.784 Y35.998 E38.74000
G1 X167.929 Y41.852 E39.73492
G1 X168.440 Y42.363 E39.82175
G1 X174.806 Y35.998 E40.90349
G1 X175.827 Y35.998 E41.02628
G1 X168.951 Y42.874 E42.19485
G1 X169.462 Y43.385 E42.28168
G1 X176.849 Y35.998 E43.53707
G1 X177.871 Y35.998 E43.65986
G1 X169.973 Y43.896 E45.00208
G1 X170.484 Y44.407 E45.08891
G1 X178.893 Y35.998 E46.51795
G1 X179.860 Y35.998 E46.63417
G1 X179.860 Y36.052 E46.64074
G1 X170.995 Y44.918 E48.14732
G1 X171.506 Y45.429 E48.23414
G1 X179.860 Y37.074 E49.65389
G1 X179.860 Y38.096 E49.77668
G1 X172.016 Y45.940 E51.10961
G1 X172.527 Y46.451 E51.19644
G1 X179.860 Y39.118 E52.44253
G1 X179.860 Y40.140 E52.56532
G1 X173.038 Y46.962 E53.72460
G1 X173.549 Y47.473 E53.81142
G1 X179.860 Y41.162 E54.88387
G1 X179.860 Y42.184 E55.00666
G1 X174.060 Y47.984 E55.99229
G1 X174.571 Y48.494 E56.07911
G1 X179.997 Y43.069 E57.00113
G1 X181.019 Y43.069 E57.12392
G1 X175.082 Y49.005 E58.13277
G1 X175.593 Y49.516 E58.21959
G1 X182.041 Y43.069 E59.31527
G1 X183.062 Y43.069 E59.43806
G1 X176.104 Y50.027 E60.62055
G1 X176.615 Y50.538 E60.70738
G1 X184.084 Y43.069 E61.97670
G1 X185.106 Y43.069 E62.09949
G1 X177.126 Y51.049 E63.45564
G1 X177.637 Y51.560 E63.54246
G1 X186.128 Y43.069 E64.98543
G1 X186.931 Y43.069 E65.08195
G1 X186.931 Y43.287 E65.10822
G1 X178.148 Y52.071 E66.60087
G1 X178.659 Y52.582 E66.68769
G1 X186.931 Y44.309 E68.09352
G1 X186.931 Y45.331 E68.21630
G1 X179.170 Y53.093 E69.53530
G1 X179.680 Y53.604 E69.62213
G1 X186.931 Y46.353 E70.85430
G1 X186.931 Y47.375 E70.97709
G1 X180.191 Y54.115 E72.12243
G1 X180.702 Y54.626 E72.20926
G1 X186.931 Y48.397 E73.26778
G1 X186.931 Y49.419 E73.39057
G1 X181.213 Y55.137 E74.36226
G1 X181.724 Y55.647 E74.44909
G1 X187.232 Y50.140 E75.38503
G1 X188.254 Y50.140 E75.50782
G1 X182.235 Y56.158 E76.53059
G1 X182.746 Y56.669 E76.61742
G1 X189.276 Y50.140 E77.72702
G1 X190.297 Y50.140 E77.84981
G1 X183.257 Y57.180 E79.04623
G1 X183.768 Y57.691 E79.13305
G1 X191.319 Y50.140 E80.41630
G1 X192.341 Y50.140 E80.53909
G1 X184.279 Y58.202 E81.90916
G1 X184.790 Y58.713 E81.99599
G1 X193.363 Y50.140 E83.45289
G1 X194.002 Y50.140 E83.52972
G1 X194.002 Y50.522 E83.57568
G1 X185.301 Y59.224 E85.05440
G1 X185.812 Y59.735 E85.14123
G1 X194.002 Y51.544 E86.53313
G1 X194.002 Y52.566 E86.65592
G1 X186.323 Y60.246 E87.96099
G1 X186.833 Y60.757 E88.04781
G1 X194.002 Y53.588 E89.26606
G1 X194.002 Y54.610 E89.38885
G1 X187.344 Y61.268 E90.52027
G1 X187.855 Y61.779 E90.60710
G1 X194.002 Y55.632 E91.65170
G1 X194.002 Y56.653 E91.77449
G1 X188.366 Y62.290 E92.73226
G1 X188.877 Y62.800 E92.81908
G1 X194.467 Y57.211 E93.76896
G1 X195.489 Y57.211 E93.89175
G1 X189.388 Y63.311 E94.92844
G1 X189.899 Y63.822 E95.01527
G1 X196.510 Y57.211 E96.13879
G1 X197.532 Y57.211 E96.26158
G1 X190.410 Y64.333 E97.47193
G1 X190.921 Y64.844 E97.55875
G1 X198.554 Y57.211 E98.85593
G1 X199.576 Y57.211 E98.97872
G1 X191.432 Y65.355 E100.36272
G1 X191.943 Y65.866 E100.44954
G1 X200.598 Y57.211 E101.92036
G1 X201.073 Y57.211 E101.97749
G1 X201.073 Y57.757 E102.04315
G1 X192.454 Y66.377 E103.50795
G1 E101.50795 F2400.00000
G92 E0
G1 X192.560 Y68.452 F7800.000
G1 E2.00000 F2400.00000
G1 F1800
G1 X133.992 Y127.021 E7.50978
G1 E5.50978 F2400.00000
G92 E0
G1 X123.864 Y134.966 F7800.000
G1 E2.00000 F2400.00000
G1 F1800
G1 X132.484 Y126.347 E3.46480
G1 X132.484 Y125.800 E3.53046
G1 X132.009 Y125.800 E3.58759
G1 X123.353 Y134.455 E5.05841
G1 X122.842 Y133.944 E5.14524
G1 X130.987 Y125.800 E6.52924
G1 X129.965 Y125.800 E6.65203
G1 X122.332 Y133.434 E7.94921
G1 X121.821 Y132.923 E8.03603
G1 X128.943 Y125.800 E9.24638
G1 X127.921 Y125.800 E9.36917
G1 X121.310 Y132.412 E10.49270
G1 X120.799 Y131.901 E10.57952
G1 X126.899 Y125.800 E11.61622
G1 X125.877 Y125.800 E11.73901
G1 X120.288 Y131.390 E12.68888
G1 X119.777 Y130.879 E12.77571
G1 X125.413 Y125.243 E13.73348
G1 X125.413 Y124.221 E13.85627
G1 X119.266 Y130.368 E14.90086
G1 X118.755 Y129.857 E14.98769
G1 X125.413 Y123.199 E16.11911
G1 X125.413 Y122.177 E16.24190
G1 X118.244 Y129.346 E17.46015
G1 X117.733 Y128.835 E17.54697
G1 X125.413 Y121.155 E18.85204
G1 X125.413 Y120.134 E18.97483
G1 X117.222 Y128.324 E20.36673
G1 X116.711 Y127.813 E20.45356
G1 X125.413 Y119.112 E21.93228
G1 X125.413 Y118.729 E21.97825
G1 X124.774 Y118.729 E22.05507
G1 X116.200 Y127.302 E23.51197
G1 X115.689 Y126.791 E23.59880
G1 X123.752 Y118.729 E24.96887
G1 X122.730 Y118.729 E25.09166
G1 X115.179 Y126.281 E26.37491
G1 X114.668 Y125.770 E26.46174
G1 X121.708 Y118.729 E27.65816
G1 X120.686 Y118.729 E27.78095
G1 X114.157 Y125.259 E28.89055
G1 X113.646 Y124.748 E28.97738
G1 X119.664 Y118.729 E30.00015
G1 X118.642 Y118.729 E30.12294
G1 X113.135 Y124.237 E31.05889
G1 X112.624 Y123.726 E31.14571
G1 X118.342 Y118.008 E32.11741
G1 X118.342 Y116.986 E32.24020
G1 X112.113 Y123.215 E33.29872
G1 X111.602 Y122.704 E33.38555
G1 X118.342 Y115.964 E34.53090
G1 X118.342 Y114.942 E34.65369
G1 X111.091 Y122.193 E35.88586
G1 X110.580 Y121.682 E35.97269
G1 X118.342 Y113.920 E37.29169
G1 X118.342 Y112.899 E37.41448
G1 X110.069 Y121.171 E38.82030
G1 X109.558 Y120.660 E38.90713
G1 X118.342 Y111.877 E40.39978
G1 X118.342 Y111.658 E40.42604
G1 X117.539 Y111.658 E40.52257
G1 X109.047 Y120.149 E41.96554
G1 X108.536 Y119.638 E42.05236
G1 X116.517 Y111.658 E43.40851
G1 X115.495 Y111.658 E43.53130
G1 X108.025 Y119.128 E44.80063
G1 X107.515 Y118.617 E44.88745
G1 X114.473 Y111.658 E46.06995
G1 X113.451 Y111.658 E46.19274
G1 X107.004 Y118.106 E47.28841
G1 X106.493 Y117.595 E47.37524
G1 X112.429 Y111.658 E48.38408
G1 X111.407 Y111.658 E48.50687
G1 X105.982 Y117.084 E49.42889
G1 X105.471 Y116.573 E49.51572
G1 X111.271 Y110.773 E50.50134
G1 X111.271 Y109.751 E50.62413
G1 X104.960 Y116.062 E51.69658
G1 X104.449 Y115.551 E51.78341
G1 X111.271 Y108.729 E52.94268
G1 X111.271 Y107.707 E53.06547
G1 X103.938 Y115.040 E54.31157
G1 X103.427 Y114.529 E54.39840
G1 X111.271 Y106.685 E55.73133
G1 X111.271 Y105.664 E55.85412
G1 X102.916 Y114.018 E57.27387
G1 X102.405 Y113.507 E57.36069
G1 X111.271 Y104.642 E58.86727
G1 X111.271 Y104.587 E58.87384
G1 X110.304 Y104.587 E58.99006
G1 X101.894 Y112.996 E60.41911
G1 X101.383 Y112.485 E60.50593
G1 X109.282 Y104.587 E61.84816
G1 X108.260 Y104.587 E61.97095
G1 X100.872 Y111.975 E63.22634
G1 X100.362 Y111.464 E63.31317
G1 X107.238 Y104.587 E64.48174
G1 X106.216 Y104.587 E64.60453
G1 X99.851 Y110.953 E65.68628
G1 X99.340 Y110.442 E65.77310
G1 X105.194 Y104.587 E66.76802
G1 X104.200 Y104.587 E66.88754
G1 X104.200 Y104.560 E66.89081
G1 X98.829 Y109.931 E67.80354
G1 X98.318 Y109.420 E67.89036
G1 X104.200 Y103.538 E68.88991
G1 X104.200 Y102.516 E69.01270
G1 X97.807 Y108.909 E70.09908
G1 X97.296 Y108.398 E70.18591
G1 X104.200 Y101.494 E71.35911
G1 X104.200 Y100.472 E71.48190
G1 X96.785 Y107.887 E72.74192
G1 X96.274 Y107.376 E72.82875
G1 X104.200 Y99.451 E74.17560
G1 X104.200 Y98.429 E74.29839
G1 X95.763 Y106.865 E75.73207
G1 X95.252 Y106.354 E75.81889
G1 X104.091 Y97.516 E77.32084
G1 X103.069 Y97.516 E77.44363
G1 X94.741 Y105.843 E78.85875
G1 X94.230 Y105.332 E78.94558
G1 X102.047 Y97.516 E80.27387
G1 X101.025 Y97.516 E80.39666
G1 X93.719 Y104.821 E81.63813
G1 X93.209 Y104.311 E81.72496
G1 X100.003 Y97.516 E82.87960
G1 X98.981 Y97.516 E83.00239
G1 X92.698 Y103.800 E84.07021
G1 X92.187 Y103.289 E84.15704
G1 X97.959 Y97.516 E85.13803
G1 X97.129 Y97.516 E85.23785
G1 X97.129 Y97.325 E85.26082
G1 X91.676 Y102.778 E86.18747
G1 X91.165 Y102.267 E86.27430
G1 X97.129 Y96.303 E87.28778
G1 X97.129 Y95.281 E87.41057
G1 X90.654 Y101.756 E88.51087
G1 X90.143 Y101.245 E88.59769
