; generated by Slic3r 1.3.0 on 2023-03-14 at 01:35:57

; external perimeters extrusion width = 0.55mm (4.37mm^3/s)
; perimeters extrusion width = 0.70mm (11.44mm^3/s)
; infill extrusion width = 0.62mm (13.45mm^3/s)
; solid infill extrusion width = 0.70mm (3.81mm^3/s)
; top infill extrusion width = 0.70mm (2.86mm^3/s)
; support material extrusion width = 0.55mm (8.74mm^3/s)

M107
M190 S70 ; set bed temperature and wait for it to be reached
M104 S230 ; set temperature
G28 ; home all axes
G1 Z5 F5000 ; lift nozzle

; Filament gcode

M109 S230 ; set temperature and wait for it to be reached
G21 ; set units to millimeters
G90 ; use absolute coordinates
M82 ; use absolute distances for extrusion
G92 E0
G1 Z0.400 F7800.000
G1 E-2.00000 F2400.00000
G92 E0
G1 X165.356 Y2.722 F7800.000
G1 E2.00000 F2400.00000
G1 F1800
G1 X167.246 Y1.394 E2.27422
G1 X169.473 Y0.785 E2.54845
G1 X171.775 Y0.966 E2.82267
G1 X173.879 Y1.917 E3.09690
G1 X174.852 Y2.722 E3.24687
G1 X217.278 Y45.148 E10.37278
G1 X218.606 Y47.037 E10.64700
G1 X219.215 Y49.265 E10.92123
G1 X219.034 Y51.566 E11.19545
G1 X218.083 Y53.671 E11.46968
G1 X217.278 Y54.644 E11.61964
G1 X54.644 Y217.278 E38.93563
G1 X52.754 Y218.606 E39.20986
G1 X50.527 Y219.215 E39.48408
G1 X48.225 Y219.034 E39.75831
G1 X46.121 Y218.083 E40.03253
G1 X45.148 Y217.278 E40.18250
G1 X2.722 Y174.851 E47.30846
G1 X1.394 Y172.962 E47.58269
G1 X0.785 Y170.735 E47.85691
G1 X0.967 Y168.433 E48.13114
G1 X1.917 Y166.329 E48.40536
G1 X2.722 Y165.356 E48.55527
G1 X165.303 Y2.775 E75.86236
G1 E73.86236 F2400.00000
G92 E0
G1 X111.414 Y68.422 F7800.000
G1 E2.00000 F2400.00000
G1 F1800
G1 X151.578 Y108.586 E8.74586
G1 X95.458 Y164.706 E18.17174
G1 X95.458 Y162.826 E18.39495
G1 X88.387 Y162.826 E19.23474
G1 X88.387 Y155.755 E20.07454
G1 X81.316 Y155.755 E20.91434
G1 X81.316 Y148.684 E21.75414
G1 X74.245 Y148.684 E22.59394
G1 X74.245 Y141.613 E23.43373
G1 X67.174 Y141.613 E24.27353
G1 X67.174 Y134.542 E25.11333
G1 X60.103 Y134.542 E25.95313
G1 X60.103 Y127.471 E26.79292
G1 X53.031 Y127.471 E27.63272
G1 X53.031 Y126.805 E27.71184
G1 X111.361 Y68.475 E37.50886
G1 X111.768 Y68.069 F7800.000
G1 E35.50886 F2400.00000
G92 E0
G1 X118.778 Y61.724 F7800.000
G1 E2.00000 F2400.00000
G1 F1800
G1 X125.849 Y61.724 E2.83980
G1 X125.849 Y68.795 E3.67959
G1 X132.920 Y68.795 E4.51939
G1 X132.920 Y75.866 E5.35919
G1 X139.991 Y75.866 E6.19898
G1 X139.991 Y82.937 E7.03878
G1 X147.063 Y82.937 E7.87858
G1 X147.063 Y90.009 E8.71837
G1 X154.134 Y90.009 E9.55817
G1 X154.134 Y97.080 E10.39797
G1 X161.205 Y97.080 E11.23776
G1 X161.205 Y98.636 E11.42262
G1 X152.426 Y107.414 E12.89702
G1 X112.586 Y67.574 E19.58865
G1 X118.778 Y61.381 E20.62876
G1 X118.778 Y61.649 E20.66062
G1 X119.492 Y61.010 F7800.000
G1 F1800
G1 X126.564 Y61.010 E21.50042
G1 X126.564 Y68.081 E22.34022
G1 X133.635 Y68.081 E23.18001
G1 X133.635 Y75.152 E24.01981
G1 X140.706 Y75.152 E24.85961
G1 X140.706 Y82.223 E25.69940
G1 X147.777 Y82.223 E26.53920
G1 X147.777 Y89.294 E27.37900
G1 X154.848 Y89.294 E28.21879
G1 X154.848 Y96.365 E29.05859
G1 X161.919 Y96.365 E29.89839
G1 X161.919 Y98.932 E30.20319
G1 X152.426 Y108.424 E31.79754
G1 X111.576 Y67.574 E38.65880
G1 X119.492 Y59.657 E39.98850
G1 X119.492 Y60.935 E40.14031
G1 X120.207 Y60.296 F7800.000
G1 F1800
G1 X120.207 Y59.630 E40.21943
G1 X158.790 Y21.046 E46.69994
G1 X198.954 Y61.210 E53.44580
G1 X162.633 Y97.531 E59.54625
G1 X162.633 Y95.651 E59.76946
G1 X155.562 Y95.651 E60.60925
G1 X155.562 Y88.580 E61.44905
G1 X148.491 Y88.580 E62.28884
G1 X148.491 Y81.509 E63.12864
G1 X141.420 Y81.509 E63.96844
G1 X141.420 Y74.438 E64.80823
G1 X134.349 Y74.438 E65.64803
G1 X134.349 Y67.367 E66.48783
G1 X127.278 Y67.367 E67.32762
G1 X127.278 Y60.296 E68.16742
G1 X120.282 Y60.296 E68.99831
G1 X119.724 Y60.167 F7800.000
G1 E66.99831 F2400.00000
G92 E0
G1 X166.154 Y14.348 F7800.000
G1 E2.00000 F2400.00000
G1 F1800
G1 X173.225 Y14.348 E2.83980
G1 X173.225 Y21.419 E3.67959
G1 X180.297 Y21.419 E4.51939
G1 X180.297 Y28.490 E5.35919
G1 X187.368 Y28.490 E6.19898
G1 X187.368 Y35.561 E7.03878
G1 X194.439 Y35.561 E7.87858
G1 X194.439 Y42.632 E8.71837
G1 X201.510 Y42.632 E9.55817
G1 X201.510 Y49.703 E10.39797
G1 X208.581 Y49.703 E11.23776
G1 X208.581 Y51.260 E11.42262
G1 X199.803 Y60.038 E12.89701
G1 X159.962 Y20.197 E19.58864
G1 X166.154 Y14.005 E20.62875
G1 X166.154 Y14.273 E20.66062
G1 X166.869 Y13.634 F7800.000
G1 F1800
G1 X173.940 Y13.634 E21.50041
G1 X173.940 Y20.705 E22.34021
G1 X181.011 Y20.705 E23.18001
G1 X181.011 Y27.776 E24.01980
G1 X188.082 Y27.776 E24.85960
G1 X188.082 Y34.847 E25.69940
G1 X195.153 Y34.847 E26.53919
G1 X195.153 Y41.918 E27.37899
G1 X202.224 Y41.918 E28.21879
G1 X202.224 Y48.989 E29.05858
G1 X209.295 Y48.989 E29.89838
G1 X209.295 Y51.556 E30.20319
G1 X199.803 Y61.048 E31.79753
G1 X158.952 Y20.197 E38.65879
G1 X166.869 Y12.281 E39.98849
G1 X166.869 Y13.559 E40.14030
G1 E38.14030 F2400.00000
G92 E0
G1 X48.650 Y169.937 F7800.000
G1 E2.00000 F2400.00000
G1 F1800
G1 X49.179 Y170.347 E2.07953
G1 X49.653 Y170.821 E2.15905
G1 X50.063 Y171.350 E2.23857
G1 X50.404 Y171.926 E2.31809
G1 X50.670 Y172.541 E2.39762
G1 X50.857 Y173.184 E2.47714
G1 X50.962 Y173.845 E2.55667
G1 X50.983 Y174.514 E2.63619
G1 X50.920 Y175.181 E2.71572
G1 X50.773 Y175.834 E2.79524
G1 X50.547 Y176.464 E2.87476
G1 X50.243 Y177.061 E2.95429
G1 X49.866 Y177.615 E3.03381
G1 X49.424 Y178.117 E3.11334
G1 X48.921 Y178.560 E3.19286
G1 X48.367 Y178.936 E3.27238
G1 X47.771 Y179.240 E3.35191
G1 X47.141 Y179.467 E3.43143
G1 X46.487 Y179.613 E3.51096
G1 X45.821 Y179.676 E3.59048
G1 X45.152 Y179.655 E3.67000
G1 X44.490 Y179.550 E3.74953
G1 X43.847 Y179.363 E3.82906
G1 X43.233 Y179.097 E3.90857
G1 X42.656 Y178.757 E3.98809
G1 X42.125 Y178.345 E4.06788
G1 X41.647 Y177.864 E4.14845
G1 X41.243 Y177.344 E4.22667
G1 X40.903 Y176.767 E4.30619
G1 X40.637 Y176.153 E4.38571
G1 X40.453 Y175.521 E4.46388
G1 X40.347 Y174.899 E4.53875
G1 X40.324 Y174.179 E4.62433
G1 X40.387 Y173.513 E4.70385
G1 X40.533 Y172.859 E4.78338
G1 X40.760 Y172.229 E4.86290
G1 X41.064 Y171.633 E4.94242
G1 X41.440 Y171.079 E5.02194
G1 X41.883 Y170.576 E5.10146
G1 X42.377 Y170.141 E5.17968
G1 X42.937 Y169.758 E5.26024
G1 X43.536 Y169.453 E5.34003
G1 X44.166 Y169.227 E5.41956
G1 X44.819 Y169.080 E5.49908
G1 X45.475 Y169.018 E5.57729
G1 X46.153 Y169.038 E5.65785
G1 X46.816 Y169.143 E5.73764
G1 X47.459 Y169.330 E5.81717
G1 X48.074 Y169.596 E5.89669
G1 X48.586 Y169.899 E5.96731
G1 X48.248 Y170.529 F7800.000
G1 F1800
G1 X48.706 Y170.884 E6.03616
G1 X49.116 Y171.294 E6.10501
G1 X49.471 Y171.752 E6.17386
G1 X49.766 Y172.251 E6.24271
G1 X49.997 Y172.783 E6.31156
G1 X50.158 Y173.340 E6.38042
G1 X50.249 Y173.912 E6.44927
G1 X50.267 Y174.492 E6.51812
G1 X50.213 Y175.069 E6.58697
G1 X50.086 Y175.635 E6.65582
G1 X49.890 Y176.180 E6.72467
G1 X49.627 Y176.697 E6.79353
G1 X49.301 Y177.176 E6.86238
G1 X48.918 Y177.611 E6.93123
G1 X48.483 Y177.994 E7.00008
G1 X48.003 Y178.320 E7.06893
G1 X47.487 Y178.583 E7.13778
G1 X46.941 Y178.780 E7.20663
G1 X46.375 Y178.906 E7.27549
G1 X45.798 Y178.961 E7.34434
G1 X45.219 Y178.943 E7.41319
G1 X44.646 Y178.852 E7.48204
G1 X44.090 Y178.690 E7.55090
G1 X43.558 Y178.460 E7.61974
G1 X43.059 Y178.165 E7.68859
G1 X42.599 Y177.809 E7.75760
G1 X42.184 Y177.392 E7.82750
G1 X41.835 Y176.941 E7.89514
G1 X41.540 Y176.442 E7.96399
G1 X41.310 Y175.910 E8.03284
G1 X41.150 Y175.360 E8.10087
G1 X41.059 Y174.828 E8.16506
G1 X41.039 Y174.202 E8.23944
G1 X41.094 Y173.625 E8.30829
G1 X41.220 Y173.059 E8.37714
G1 X41.417 Y172.513 E8.44599
G1 X41.680 Y171.997 E8.51484
G1 X42.006 Y171.517 E8.58369
G1 X42.389 Y171.082 E8.65254
G1 X42.816 Y170.706 E8.72019
G1 X43.302 Y170.374 E8.79008
G1 X43.820 Y170.110 E8.85909
G1 X44.365 Y169.914 E8.92794
G1 X44.931 Y169.787 E8.99679
G1 X45.498 Y169.734 E9.06444
G1 X46.086 Y169.751 E9.13433
G1 X46.660 Y169.842 E9.20334
G1 X47.217 Y170.003 E9.27220
G1 X47.749 Y170.234 E9.34104
G1 X48.184 Y170.490 E9.40099
G1 X47.846 Y171.120 F7800.000
G1 F1800
G1 X48.233 Y171.421 E9.45917
G1 X48.579 Y171.767 E9.51735
G1 X48.880 Y172.154 E9.57553
G1 X49.129 Y172.576 E9.63370
G1 X49.323 Y173.025 E9.69188
G1 X49.460 Y173.496 E9.75006
G1 X49.537 Y173.980 E9.80824
G1 X49.552 Y174.469 E9.86642
G1 X49.506 Y174.957 E9.92460
G1 X49.399 Y175.435 E9.98278
G1 X49.233 Y175.896 E10.04096
G1 X49.011 Y176.332 E10.09914
G1 X48.736 Y176.738 E10.15732
G1 X48.412 Y177.105 E10.21549
G1 X48.044 Y177.429 E10.27367
G1 X47.639 Y177.704 E10.33185
G1 X47.202 Y177.927 E10.39003
G1 X46.742 Y178.093 E10.44821
G1 X46.263 Y178.199 E10.50639
G1 X45.776 Y178.246 E10.56457
G1 X45.286 Y178.230 E10.62275
G1 X44.802 Y178.154 E10.68093
G1 X44.332 Y178.017 E10.73911
G1 X43.882 Y177.822 E10.79728
G1 X43.461 Y177.573 E10.85546
G1 X43.073 Y177.272 E10.91370
G1 X42.722 Y176.919 E10.97292
G1 X42.427 Y176.539 E11.02999
G1 X42.178 Y176.118 E11.08817
G1 X41.983 Y175.668 E11.14635
G1 X41.847 Y175.200 E11.20423
G1 X41.771 Y174.756 E11.25775
G1 X41.754 Y174.224 E11.32093
G1 X41.801 Y173.736 E11.37911
G1 X41.907 Y173.258 E11.43729
G1 X42.073 Y172.798 E11.49547
G1 X42.296 Y172.361 E11.55364
G1 X42.571 Y171.956 E11.61182
G1 X42.895 Y171.588 E11.67000
G1 X43.255 Y171.271 E11.72708
G1 X43.667 Y170.989 E11.78629
G1 X44.104 Y170.767 E11.84453
G1 X44.565 Y170.601 E11.90271
G1 X45.043 Y170.494 E11.96089
G1 X45.522 Y170.449 E12.01796
G1 X46.020 Y170.463 E12.07718
G1 X46.504 Y170.540 E12.13541
G1 X46.975 Y170.677 E12.19360
G1 X47.424 Y170.871 E12.25177
G1 X47.781 Y171.082 E12.30105
G1 X47.846 Y171.120 F7800.000
G1 E10.30105 F2400.00000
G92 E0
G1 X72.816 Y150.113 F7800.000
G1 E2.00000 F2400.00000
G1 F1800
G1 X79.887 Y150.113 E2.83980
G1 X79.887 Y157.184 E3.67960
G1 X86.958 Y157.184 E4.51939
G1 X86.958 Y164.255 E5.35919
G1 X94.030 Y164.255 E6.19899
G1 X94.030 Y165.811 E6.38385
G1 X49.896 Y209.945 E13.79650
G1 X10.055 Y170.104 E20.48813
G1 X51.603 Y128.556 E27.46650
G1 X51.603 Y128.899 E27.50727
G1 X58.674 Y128.899 E28.34706
G1 X58.674 Y135.970 E29.18686
G1 X65.745 Y135.970 E30.02666
G1 X65.745 Y143.042 E30.86646
G1 X72.816 Y143.042 E31.70626
G1 X72.816 Y150.038 E32.53715
G1 X73.530 Y149.398 F7800.000
G1 F1800
G1 X80.602 Y149.398 E33.37694
G1 X80.602 Y156.470 E34.21674
G1 X87.673 Y156.470 E35.05654
G1 X87.673 Y163.541 E35.89634
G1 X94.744 Y163.541 E36.73613
G1 X94.744 Y166.107 E37.04094
G1 X49.896 Y210.955 E44.57354
G1 X9.045 Y170.104 E51.43481
G1 X52.317 Y126.832 E58.70276
G1 X52.317 Y128.185 E58.86348
G1 X59.388 Y128.185 E59.70328
G1 X59.388 Y135.256 E60.54308
G1 X66.459 Y135.256 E61.38287
G1 X66.459 Y142.327 E62.22267
G1 X73.531 Y142.327 E63.06247
G1 X73.530 Y149.323 E63.89336
G1 E61.89336 F2400.00000
G92 E0
G1 X188.796 Y34.133 F7800.000
G1 E2.00000 F2400.00000
G1 F1800
G1 X195.867 Y34.133 E2.83980
G1 X195.867 Y41.204 E3.67959
G1 X202.938 Y41.204 E4.51939
G1 X202.938 Y48.275 E5.35919
G1 X210.009 Y48.275 E6.19898
G1 X210.009 Y50.155 E6.42219
G1 X211.116 Y49.047 E6.60814
G1 X211.965 Y49.896 E6.75066
G1 X49.896 Y211.965 E33.97163
G1 X8.035 Y170.104 E41.00253
G1 X170.104 Y8.035 E68.22351
G1 X170.950 Y8.881 E68.36559
G1 X167.583 Y12.254 E68.93160
G1 X167.583 Y12.920 E69.01070
G1 X174.654 Y12.920 E69.85050
G1 X174.654 Y19.991 E70.69029
G1 X181.725 Y19.991 E71.53009
G1 X181.725 Y27.062 E72.36989
G1 X188.796 Y27.062 E73.20969
G1 X188.796 Y34.058 E74.04057
G1 X188.925 Y34.616 F7800.000
G1 E72.04057 F2400.00000
G92 E0
G1 X209.652 Y51.360 F7800.000
G1 E2.00000 F2400.00000
G1 F1800
G1 X211.288 Y49.724 E2.15391
G1 E0.15391 F2400.00000
G92 E0
G1 X199.525 Y59.306 F7800.000
G1 E2.00000 F2400.00000
G1 F1800
G1 X208.144 Y50.686 E3.46479
G1 X208.144 Y50.140 E3.53045
G1 X207.669 Y50.140 E3.58758
G1 X199.014 Y58.795 E5.05841
G1 X198.503 Y58.284 E5.14524
G1 X206.647 Y50.140 E6.52924
G1 X205.625 Y50.140 E6.65203
G1 X197.992 Y57.773 E7.94920
G1 X197.481 Y57.262 E8.03603
G1 X204.603 Y50.140 E9.24638
G1 X203.582 Y50.140 E9.36917
G1 X196.970 Y56.751 E10.49269
G1 X196.459 Y56.240 E10.57952
G1 X202.560 Y50.140 E11.61622
G1 X201.538 Y50.140 E11.73901
G1 X195.948 Y55.729 E12.68888
G1 X195.437 Y55.218 E12.77571
G1 X201.073 Y49.582 E13.73348
G1 X201.073 Y48.561 E13.85627
G1 X194.926 Y54.708 E14.90087
G1 X194.415 Y54.197 E14.98769
G1 X201.073 Y47.539 E16.11911
G1 X201.073 Y46.517 E16.24190
G1 X193.905 Y53.686 E17.46015
G1 X193.394 Y53.175 E17.54697
G1 X201.073 Y45.495 E18.85205
G1 X201.073 Y44.473 E18.97484
G1 X192.883 Y52.664 E20.36673
G1 X192.372 Y52.153 E20.45356
G1 X201.073 Y43.451 E21.93228
G1 X201.073 Y43.069 E21.97825
G1 X200.434 Y43.069 E22.05507
G1 X191.861 Y51.642 E23.51197
G1 X191.350 Y51.131 E23.59880
G1 X199.412 Y43.069 E24.96887
G1 X198.390 Y43.069 E25.09166
G1 X190.839 Y50.620 E26.37491
G1 X190.328 Y50.109 E26.46174
G1 X197.368 Y43.069 E27.65816
G1 X196.347 Y43.069 E27.78095
G1 X189.817 Y49.598 E28.89055
G1 X189.306 Y49.087 E28.97738
G1 X195.325 Y43.069 E30.00015
G1 X194.303 Y43.069 E30.12294
G1 X188.795 Y48.576 E31.05889
G1 X188.284 Y48.065 E31.14571
G1 X194.002 Y42.347 E32.11741
G1 X194.002 Y41.326 E32.24020
G1 X187.773 Y47.555 E33.29872
G1 X187.262 Y47.044 E33.38554
G1 X194.002 Y40.304 E34.53089
G1 X194.002 Y39.282 E34.65368
G1 X186.752 Y46.533 E35.88585
G1 X186.241 Y46.022 E35.97268
G1 X194.002 Y38.260 E37.29168
G1 X194.002 Y37.238 E37.41447
G1 X185.730 Y45.511 E38.82029
G1 X185.219 Y45.000 E38.90711
G1 X194.002 Y36.216 E40.39976
G1 X194.002 Y35.998 E40.42603
G1 X193.199 Y35.998 E40.52255
G1 X184.708 Y44.489 E41.96553
G1 X184.197 Y43.978 E42.05235
G1 X192.177 Y35.998 E43.40850
G1 X191.155 Y35.998 E43.53129
G1 X183.686 Y43.467 E44.80061
G1 X183.175 Y42.956 E44.88744
G1 X190.133 Y35.998 E46.06994
G1 X189.112 Y35.998 E46.19273
G1 X182.664 Y42.445 E47.28840
G1 X182.153 Y41.934 E47.37522
G1 X188.090 Y35.998 E48.38407
G1 X187.068 Y35.998 E48.50686
G1 X181.642 Y41.423 E49.42888
G1 X181.131 Y40.912 E49.51571
G1 X186.931 Y35.112 E50.50133
G1 X186.931 Y34.091 E50.62412
G1 X180.620 Y40.402 E51.69657
G1 X180.109 Y39.891 E51.78340
G1 X186.931 Y33.069 E52.94267
G1 X186.931 Y32.047 E53.06546
G1 X179.598 Y39.380 E54.31156
G1 X179.088 Y38.869 E54.39839
G1 X186.931 Y31.025 E55.73131
G1 X186.931 Y30.003 E55.85410
G1 X178.577 Y38.358 E57.27386
G1 X178.066 Y37.847 E57.36068
G1 X186.931 Y28.981 E58.86726
G1 X186.931 Y28.927 E58.87383
G1 X185.964 Y28.927 E58.99005
G1 X177.555 Y37.336 E60.41909
G1 X177.044 Y36.825 E60.50592
G1 X184.942 Y28.927 E61.84814
G1 X183.920 Y28.927 E61.97093
G1 X176.533 Y36.314 E63.22633
G1 X176.022 Y35.803 E63.31315
G1 X182.899 Y28.927 E64.48173
G1 X181.877 Y28.927 E64.60452
G1 X175.511 Y35.292 E65.68626
G1 X175.000 Y34.781 E65.77309
G1 X180.855 Y28.927 E66.76801
G1 X179.860 Y28.927 E66.88753
G1 X179.860 Y28.899 E66.89080
G1 X174.489 Y34.270 E67.80352
G1 X173.978 Y33.759 E67.89034
G1 X179.860 Y27.878 E68.88989
G1 X179.860 Y26.856 E69.01268
G1 X173.467 Y33.249 E70.09905
G1 X172.956 Y32.738 E70.18588
G1 X179.860 Y25.834 E71.35908
G1 X179.860 Y24.812 E71.48187
G1 X172.445 Y32.227 E72.74189
G1 X171.935 Y31.716 E72.82871
G1 X179.860 Y23.790 E74.17556
G1 X179.860 Y22.768 E74.29835
G1 X171.424 Y31.205 E75.73203
G1 X170.913 Y30.694 E75.81885
G1 X179.751 Y21.856 E77.32080
G1 X178.729 Y21.856 E77.44358
G1 X170.402 Y30.183 E78.85870
G1 X169.891 Y29.672 E78.94553
G1 X177.707 Y21.856 E80.27382
G1 X176.685 Y21.856 E80.39661
G1 X169.380 Y29.161 E81.63808
G1 X168.869 Y28.650 E81.72491
G1 X175.664 Y21.856 E82.87955
G1 X174.642 Y21.856 E83.00234
G1 X168.358 Y28.139 E84.07016
G1 X167.847 Y27.628 E84.15698
G1 X173.620 Y21.856 E85.13798
G1 X172.789 Y21.856 E85.23780
G1 X172.789 Y21.664 E85.26077
G1 X167.336 Y27.117 E86.18741
G1 X166.825 Y26.606 E86.27424
G1 X172.789 Y20.643 E87.28771
G1 X172.789 Y19.621 E87.41050
G1 X166.314 Y26.095 E88.51080
G1 X165.803 Y25.585 E88.59762
G1 X172.789 Y18.599 E89.78474
G1 X172.789 Y17.577 E89.90753
G1 X165.292 Y25.074 E91.18148
G1 X164.782 Y24.563 E91.26831
G1 X172.789 Y16.555 E92.62908
G1 X172.789 Y15.533 E92.75187
G1 X164.271 Y24.052 E94.19947
G1 X163.760 Y23.541 E94.28629
G1 X172.516 Y14.784 E95.77431
G1 X171.494 Y14.784 E95.89710
G1 X163.249 Y23.030 E97.29829
G1 X162.738 Y22.519 E97.38512
G1 X170.472 Y14.784 E98.69949
